X:1
T:Sinatina
T:Sonatina
T:Antonín Dvořák, Op. 100
C:Anto Dvorak
%%score 1 { ( 2 4 8 ) | ( 3 5 6 7 ) }
L:1/8
Q:1/4=120
M:3/4
K:G
V:1 treble nm="Violin"
V:2 treble nm="Piano"
V:4 treble 
V:8 treble 
V:3 bass 
V:5 bass 
V:6 bass 
V:7 bass 
V:1
"^I.""^Allegro risoluto" G6 | B6 | !>!d2 (!>!d2 !>!e2) | !>!B4 z2 | z!p! (udedBA) | (G2 E2 D2) | %6
!>(! (E!2!A) A3 A!>)! |{/A} G4 z2 | z3/2 G/ (G2 D2) | z3/2 !3!B/ (B2 G2) | !>!d2 (!>!d2 !>!e2) | %11
 !>!!3!B4 z2 | z!mp! (u!4!g!0!agfe) | (df)(.!3!f.!1!B .d2) | (^c2{/e} d2 c2) | B2 z2 z2 | %16
 z2!pp! d4 | z2 d4 | z2 d4 | z2 d4 |!p!!<(! (a4 ^g2) | (a4 ^g2) | (a2 b2 ae)!<)! | (e2 d2) z .d | %24
!f! b4 a2 |!>(! (ag) (e3 .e)!>)! | g2 (dBAe) | (d B2) (Bdb) | b4 a2 | (3(ag.e) (e3!>(! .e) | %30
 g2 (edBA)!>)! |!f! .B2 (B2!>(! ^A2) | .B2 (B2 ^A2)!>)! |"_dim." .B2 (B2 ^A2) | %34
!p! B2 (!tenuto!B2!>(! !tenuto!B2 | !tenuto!B2 !tenuto!B2 !tenuto!B2)!>)! | B2 z2 z2 | %37
 z2!pp! (e>d !tenuto!B2 | !tenuto!B2) z2 z2 | z2!<(! (fA!<)!!>(! cB)!>)! |!<(! (B4 c2-!<)! | %41
 c2) (.c.B A2) |!>(! (B2 c2 ^c2 | F)!>)! z z2 z2 |"_dolce" (!tenuto!B2 !tenuto!B2 e>d) | B2 z2 z2 | %46
 (!tenuto!B2 !tenuto!B2!<(! f>A)!<)! |!>(! (cB)!>)! z2 z2 |!<(! B2 (B2 b2)!<)! |!<(! b4 a2!<)! | %50
!<(! (3(ge).b (3(bg).e!<)! .B.^d |!f! ve2 (3(vgf).e (3(gf).e | ve2 (3(vgf).e (3(gf).e | %53
"_cresc." (3(gf).e (3(gf).e (3(gf).e | .g2 (.b2 .B2) |!ff! e z (!>!c2 B) z | E z (!>!c2 B) z | %57
 (!>!c2 B) z ^A2 | B4 ^d2 |!ff! (.ez/.e/) (e2 B2) | (.ez/.g/) (g2 e2) | (.bz/.e'/) e'2 z2 | %62
 (.gz/.b/) b2 z2 |1!p! (!2!e2 g2 !tenuto!g2) | (!4!g !4!e2!>(! d B2) | (edBGED)!>)! | %66
"^poco rit."!pp! (!3!B2 _B2 A2) :|2!p! (!2!e2 g2 !tenuto!g2) | (g !3!=f2 !3!d _B2) || %69
!>(! (g=fd_B).f.d | ._B.G.=F.D.F.F!>)! |!pp! .[_B,D].[B,D].[B,D].[B,D].[B,D].[B,D] | %72
 .[_B,D].[B,D].[B,D].[B,D].[B,D].[B,D] | .[_B,D].[B,D].[B,D].[B,D].[B,D].[B,D] | %74
 .[_B,D].[B,D].[B,D].[B,D].[B,D].[B,D] | .[_B,D] z z2 z2 | z6 | z6 | z6 | z!p! (!3!=fgf!3!dc) | %80
 (_B2 G2 =F2) | (!1!G>c) (!tenuto!c2 !tenuto!c2) | c4 z2 | z3/2!p! !1!_d/ (d2 _A2) | %84
 z3/2 !3!=f/ (f2 _d2) | (!1!_a=f)!<(!.!2!_b.a.f._d | !2!_A6-!<)! | A2 z2!mf! (_A2 | %88
 !3!_B2 !3!_G2 =F2) |!>(! _E6!>)! | (!1!_E>!4!c) .c2 .c2 |"_dim." !1!_E6 | (_E>!4!c) .c2 .c2 | %93
!p! c4 z2 |!pp! (!2!=F>!4!c) .c2 .c2 | c4 z2 | (=F>c) .c2 .c2 | ^c4 z2 | %98
!<(! (!2!^F>!3!^f) .f2 .f2!<)! |!f! (f>b) .b2 .b2 | .g2 .e2 .f2 | ^d z (3(B^c).d (3(de).f | %102
 (3(ef).g (3(ga).b (3(^ca).c |!f! (!1!d>d') .d'2 .d'2 | ._b2 .g2 .c'2 | =f z (3(=FG).A (3(A_B).c | %106
 (3(_Bc)._d (3(d_e).=f (3(g_b)._d |!f! (3(c_a).a (3:2:1!/!a3 (3:2:1!/!a3 | %108
 (3(c_a).a (3:2:1!/!a3 (3:2:1!/!a3 | (3(^c=a).a (3:2:1!/!a3 (3:2:1!/!a3 | %110
 (3(^c=a).a (3:2:1!/!a3 (3:2:1!/!a3 |!ff! (!1!d>d') .d'2 .d'2 | (d>d') .d'2 .d'2 | %113
"_dim." (d>d') .d'2 (!0!D>!1!d) |!>(! .d2 (D>d) .d2!>)! | !>!!1!G6 | !>!B6 | !>!d2 !>!d2 !>!e2 | %118
 B4 z2 | z!p! (dedBA) | (G2 E2!>(! D2) | (EA) (!tenuto!A2 !tenuto!A2)!>)! |!pp!{/A} G4 z2 | %123
 z3/2!f! !1!G/ (G2 D2) | z3/2 !3!_B/ (B2 G2) | !1!d2 (((.d2 ._e2))) | d4 z2 | %127
!mp! (v!3!_B2 !1!=E2 G2) |"^dim." (D2 =F2 D2) |!>(! (A2 A,2 A2 | D2)!>)! z2 z2 | %131
 z2!pp! !tenuto!=F4 | z2 !tenuto!=F4 | z2 !tenuto!=F4 | z2!<(! (u!1!=f3 !3!c')!<)! | %135
!mf! (c'4"_espressivo" b2) | (c'4 b2) | (c'2 d'2 c'!2!g) |!<(! (g2 =f2) z !1!f!<)! | %139
!f! !4!d'4 c'2 | (c'_b) (!2!g3 .g) | _b2 (=fd!2!c!4!g) | (=f d2 .d) (dd') |!f! !>!d'4 c'2 | %144
 (3(!3!c'_b!2!g) g3 g | _b2 (g=fdc) | .d2 (d2!>(! ^c2) | .d2 (d2 ^c2) | .d2 (d2 ^c2!>)! | %149
!p! d2) z2 z2 | z6 | z6 | z2!pp! (!4!g_e d2- | d2) z2 z2 | z2 (!1!a!>(!!2!_e d2)!>)! | %155
!<(! !2!=b4 !1!a2!<)! | (3(!3!ag=e) (e3 .e) | g2 (d!>(!BAe) | (d!>)! B2!<(! !tenuto!B) (db)!<)! | %159
!f! b4 a2 |!<(! (3(age) (e3 .e)!<)! | g2 (dBAd) | G z!ff! (3(!3!_BA).G (3(BA).G | %163
 G z (3(_BA).G (3(BA).G | (3(_BA).G (3(BA).G (3(BA).G | .!1![G=B]2 (.d2 .D2) | %166
 G z (!>![_E_e]2 [Dd]) z | G z (!>![_E_e]2 [Dd]) z | (!>!d2 ^c) z c2 | d4 (=B>A) | %170
!ff! Gz/G/ (G2 D) z | Gz/B/ (B2 G) z | dz/g/ g2 z2 | Bz/d/ d2 z2 | %174
!mp! (!2!e2!<(! g2 !tenuto!g2)!<)! | (!4!g2!>(! !4!edBG)!>)! | (E>!2!A) A2 A2 |!>(! A4- AG!>)! | %178
!p! !1!Gz/G/ (G2 !0!D) z | !1!Gz/!3!B/ (B2 G) z |"_dim." (d>g) g2 z2 | (B>d) d2 z2 | %182
!pp! (!2!A4 ^A2) | (!3!B2 !3!G2 DB,) |"^ritard." (A,6- | A,2 B,2 C2 | %186
 B,)"^in tempo" (de!<(!d"^ma molto tranquillo"BG)!<)! |!>(! (E4 D2- | D)!>)! z z2 z2 | z6 | %190
 z3/2!p! (ud/ e2 d2) | z3/2"_dim." (vD/ E2 D2) | z3/2!pp! (ud/ e4- |!<(! e2 d2 B2)!<)! | (G6 | %195
!>(! B4 !1!d2)!>)! |!pp! g6- |!>(! g6- | !fermata!g6!>)! |] %199
[K:Bb][M:2/4]"^*)II.""^*)  Known as \"Indian Canzonetta\""!mp![Q:1/4=45]"^Larghetto" (B>c!<(! !tenuto!d/!tenuto!d/!tenuto!d/!tenuto!d/)!<)! | %200
 (d>c!>(! (B/G/)!tenuto!G/!tenuto!G/)!>)! | (G>A) (B/d/B/A/) | ((B/G/) !tenuto!G2) z | %203
 (B>c) (!tenuto!d/!tenuto!d/!tenuto!d/!tenuto!d/) |!<(! (d>c) ((B/G/)!tenuto!G/!tenuto!G/)!<)! | %205
!<(! (G>A) (B/d/c/!0!!4!a/)!<)! |!mf!!>(! (a !4!g3)!>)! | %207
!pp!"^sul D" (B>c !tenuto!d/!tenuto!d/!tenuto!d/!tenuto!d/) | (d>c (B/G/)!tenuto!G/!tenuto!G/) | %209
 (G>A B/d/B/A/) | ((B/G/) !tenuto!G2) z |!<(! (Bc) (!tenuto!d/!tenuto!d/!tenuto!d/!tenuto!d/)!<)! | %212
!f! (d>c)!>(! ((B/G/)!tenuto!G/!tenuto!G/) | (G>!>)!!0!A) (B/"_dim."d/c/!0!!4!a/) | %214
!p! (a"_rit." !4!g2) z |"^in tempo" z!pp! (!tenuto!B z !tenuto!B) | z (!tenuto!B z !tenuto!B) | %217
 z (!tenuto!B z !tenuto!B) | z!pp! (!tenuto!F!tenuto!F!tenuto!F) | (FB) z!<(! !tenuto!B | %220
 z (!tenuto!B z !tenuto!B)!<)! | z!mf!!<(! (uBAG)!<)! |!>(! (^FA)!>)!"_dim." !fermata!d>d | %223
!p! c2- (c/d/c/G/) | (Fd) c2 | (cf) (d/!<(!f/d/c/) | (5:4:5(F/G/F/A/d/) c2!<)! | %227
 z!p! (!tenuto![FA] z !tenuto![FA]) | %228
 z/ (!tenuto![FA]/"_cresc."!tenuto![FA]/!tenuto![FA]/ !tenuto![FA]2) | %229
 z!<(! (!tenuto![FA] z !tenuto![FA]) | %230
 z/ (!tenuto![FA]/!tenuto![FA]/!tenuto![FA]/ !tenuto![FA]2)!<)! |!f! (!1!d2!>(! f/g/f/d/) | %232
 (c!>)!"_dim."d) (BG) |!p! (Bc"_dim."!1!_d!3!f) | c4 |!p! (!1!d2 f/g/!3!f/!3!d/) | %236
!<(! (cd)!<)!!>(! (!>!B>G)!>)! |!pp! (GA) (B!tenuto!e/!tenuto!d/) | %238
 z (!tenuto!e/!>(!!tenuto!d/)!>)! z2 | z (!tenuto!e/!>(!!tenuto!d/)!>)! z2 | %240
 z"_dim." !>!.e/.d/ !>!.e/.d/ !>!.e/.d/ |"_dim." (.e/.d/)(.e/.d/) (.E/.D/)(.E/.D/) || %242
[K:G]!pp![Q:1/4=50]"^Poco più mosso""^spicc." (.E/.D/.E/.D/)"^1" (.E/.D/.E/.D/) | %243
 (.E/.D/.E/.D/)"^2" (.E/.D/.E/.D/) | (.E/.D/.E/.D/)"^3" (.E/.D/.E/.D/) | %245
 (.E/.D/.E/.D/)"^4" (.E/.D/.E/.D/) | (.E/.D/.E/.D/)"^5" (.E/.D/.E/.D/) | %247
 (.E/.D/.E/.D/)"^6" (.E/.D/.E/.D/) | (.E/.D/.E/.D/)"^7" (.E/.D/.E/.D/) | %249
 (.E/.D/.E/.D/)"^8" (.E/.D/.E/.D/) | (.E/.D/.E/.D/)"^9"!<(! (.E/.D/.E/.D/) | %251
 (.E/.D/.E/.D/)"^10" (.E/.D/.E/.D/)!<)! | (.E/.D/.E/.D/)"^11"!>(! (.E/.D/.E/.D/) | %253
 (.E/.D/.E/.D/) (.E/.D/.G/.B/)!>)! | %254
!pp![Q:1/4=50]"^Meno mosso, Tempo I" (!tenuto!!1!d2 !tenuto!!3!!4![Bg]2) | %255
 (!tenuto!!3!!2![Be] !tenuto!!3!!1![Bd]3) | (!tenuto!!2!!4![Fe]!tenuto!d) (!tenuto![Fe]!tenuto!d) | %257
 !1!G4- | G4- | G4- | G4- | G4 |!pp! (!1!d2 !4!g2 | d2 g2 | d2 g2 | d2 g2) |!<(! d4!<)! | !>!d'4- | %268
 d'2!>(! (!tenuto!d2 | !tenuto!d2!>)! !tenuto!d2) || %270
[K:Bb]!pp! (Bc !tenuto!d/!tenuto!d/!tenuto!d/!tenuto!d/) | (d>c ((B/G/)!tenuto!G/!tenuto!G/)) | %272
 (G>A B/d/B/A/) | ((B/G/) !tenuto!G2) z |!<(! (Bc) (!tenuto!d/!tenuto!d/!tenuto!d/!tenuto!d/)!<)! | %275
!f! (d>c) ((B/G/)!tenuto!G/!tenuto!G/) | (G>!<(!A) (B/d/c/!0!!4!a/)!<)! | %277
!>(! (a g2)!>)!!p! (!3!=f/!3!d/) |!<(! [Dd]4!<)! |!>(! [_E^c]4!>)! |!p!!<(! [Dd]4!<)! | %281
!>(! [_E^c]4!>)! |!p! (d/B/G/D/ B,2- | %283
 B,>)(A,"^dim." !tenuto!G,/!tenuto!G,/!tenuto!G,/!tenuto!G,/) |!ppp!"^rit." G,4- | !fermata!G,4 |] %286
[K:G][M:3/4]"^III."[Q:1/4=150]"^Scherzo\nMolto vivace\n" z2 z!pp! .d .d2 | !>!d6 | z2 z vd .ud2 | %289
 !>!uE6 | (D2 G2 B2) | (A2 d2 ed) | (d2 B4- | B2) z2 z2 | z2 z!mp! d .d2 |!<(! !>!d6!<)! | %296
 z2 z!<(! vd .ud2 | !>!uE6!<)! |"_cresc." (D2 G2 B2) | (A2 d2 ed) |!mf! g2 ((PB2 A2)) | %301
 .G2 z2 z2 ::!f! (DA)fAfA | (DA)fAfA | (DA)fAfA | (DB)gBgB | (DA)fAfA | (DA)fAfA | (Aa) aA aA | %309
 (DA)fAfA | (DA)fAfA | (DA)fAfA | (DA)fAfA | (DB)gBgB | (DA)fAfA | (DA)fAfA | (A,A) Aa aA | %317
 d2 z!f! d d2 | !>!d6 | z2 z d d2 | !>!d6 | z2 z d d2 | z2 z!>(! d d2 | z2 z d d2!>)! | %324
 z2 z!p! d d2 | z2 z!pp! d .d2 | !>!d6 | z2 z d .d2 | !>!E6 | (D2 G2 B2) | (A2 d2 ed) | (d2 B4- | %332
 B2) z2 z2 | z2 z!mp! d .d2 |!<(! !>!d6!<)! | z2 z!<(! d .d2 | !>!E6!<)! |"_cresc." (D2 G2 B2) | %338
 (A2 d2 ed) |!mf! g2 ((PB2 A2)) | .G2 z2 z2!fine! :: %341
[K:C][M:3/4]"^Trio"!p!!<(! (c2!<)!!>(! e2 d2)!>)! |!<(! (c2!<)!!>(! e2 d2)!>)! | %343
!<(! (c2 d2 c2)!<)! |!>(! (A2 G4)!>)! |!<(! (c2!<)!!>(! e2 d2)!>)! |!<(! (c2!<)!!>(! e2 d2)!>)! | %347
 (c2 a2 gd) | c4 z2 ::!f! .G,.G, ._E.E .D.D | .G,.G, ._E.E .D.D | .G,.G, ._A.A .G.G | %352
 .F.F .D.D .C.C | .B,.B, ._E.E .D.D | .B,.B, ._E.E .D.D | .B,.B, .G.G .^F.F | .G.G .G.G .G.G | %357
 .G.G .G.G .^F.F | .G.G .G.G .G.G | G z (G2 _A2 | G)!>(! z (G2 ^F2 | =F) z (F2 ^F2 | %362
 G^FGA_B=B)!>)! |!p! (c2 !>!e3 d) | (c2 !>!e3 d) |!<(! (c2 d2 c2)!<)! |!f!!>(! (A2 G4)!>)! | %367
!p! (c2 !>!e3 d) | (c2 !>!e3 d) | (c2 !>!a2 gd) | c4 z2!D.C.! :| %371
[K:G][M:2/4]"^IV."[Q:1/4=144]"^Finale\nAllegro\n"!mp! !>!b2 !>!a2 | .g!>(!(ged)!>)! | %373
 (B!>(! !>!d2 e)!>)! |!p! A4 |!mp!{/B} !>!b2 !>!a2 |!>(! .g(ged)!>)! |!p! B (!>!B2 A) | (G E2) z | %379
!f! (DE=F^F) | G4 |!<(! (G2!<)! g2) |!>(! d4!>)! |!<(! (DE=F^F)!<)! |!>(! G4!>)! | (GBdc) | %386
 (B G2) z | z4 | z4 | z4 | z4 |!p! (.g !>!g2 =f) | (_e2 d2) | (cd_ec) | (A2 G2) | z4 | z4 | z4 | %398
 z4 |!p! (.g !>!g2 =f) | (_e2 d2) | (cd_ec) | (c"^rit."d!>(! _e/d/c) | (c/d/c/d/ _e.c)!>)! | %404
!pp! =A2 d2 |!mf!"^in tempo"{/d} !>!=b2 !>!a2 | .g(ged) | (B d2 e) | A4 |!f!{/B} b2 a2 | %410
!<(! .g(ged)!<)! | (Bg) !>!A2 | G3 z | z4 | z4 | z4 | z4 | z4 |!ff!{/B} !>!b2{/A} !>!a2 | %419
 !>!g2 !>!a2 | (f2 g.e) | (^d3 B) | (f2 g.e) | (^d3 B) |"^dim." (^DFGE |!>(! ^DFGE)!>)! | %426
!>(! (^DFGE | ^DFG!>)!E) |!p!"_poco a poco ritard." (B3 !tenuto!B) | (B3 !tenuto!B) | %430
 (B3 !tenuto!B) | (B3 !tenuto!B) |!pp!"^in tempo" ez/B/ ez/f/ | gz/g/ fz/g/ | ez/e/ fz/e/ | B4 | %436
 Bz/g/ fz/e/ | dz/e/ dz/B/ | Bz/A/ Bz/A/ | (F !>!B3) |!p! B4- |!<(! B4 | (g3 f/e/ | d)(g dB)!<)! | %444
!mf! B4 |"_cresc." (!trill(!T^d4 | e)z/!<(!(B/ ^d)z/B/ | (B!<)! !>!e2) z |!ff! eg b/b/b | %449
 (b/g/e/).e/ e2 | e'a be | e'a be | e'a be | ff !>!b2 |!f! EG B/B/B | (B/G/E/).E/ E2 | %456
 !>!eA !>!BE | eA BE | eA e^A | !>!B2 !>![Bb]2 |!f! ez/B/ ez/f/ | gz/g/ fz/g/ | ez/e/ fz/e/ | %463
{/d} B4 | Bz/g/ fz/e/ | dz/e/ dz/B/ | Bz/A/ Fz/E/ | E4 | Bz/A/ Fz/E/ | E4 | (B2!>(! A2 | %471
 G2 E2)!>)! | E>E E>E | E>E"_dim."!>(! E>E | E>E E>E | E>E E>!>)!E || %476
[K:E]!pp![Q:1/4=114]"^Molto tranquillo" (E3 F | G B3) | (c2 (3edc | e B3) |"_cresc." (E3 F) | %481
 (GABe) | (g2 f>c) |"_dim." !2!e4 |!pp! (!4!g3 f | e2 dc) | (!1!G2 !3!B2- | B) z z2 | %488
!<(! (!4!g3 f | e2 dc)!<)! |!>(! (G2 B2- | B)!>)! z z2 |!pp! (!1!E3 F | G B3) |!pp! (=c2 e=d | %495
 =c =G3) | (^G3 A | B e3) | (.g !tenuto!g2 f | e4) |!pp! E"^1" E2 E- | E"^2" E2 E- | E"^3" E2 E- | %503
 E"^4" E2 E- | E"^5" E2 E- | E"^6" E2 E- | E"^7" E2 E |!<(! (EGBe)!<)! |!mf! e4 | (EG!1!B!1!e) | %510
 !1!e4 | (!1!e!3!g!1!b!4!e') |"_dim." !0!e'4- | e'4- |!>(! e'4- | e'4!>)! |!pp! (e'2 !3!c'b | %517
 !2!b2 !2!gf) | (e2 cB | B2 GF) ||[K:G][Q:1/4=144]"^Tempo I" E4- | E4- | E z z2 | z4 | z4 | z4 | %526
 z4 | z4 |!f! !>!g2 !>!f2 | !>!e2 !>!d2 | !>!^c2 !>!B2 | !>!^A2 !>!f2 | .B.B.^c.^d | !>!e2 .f.g | %534
 !>!b2 !>!a2 | !>!g2 .f.e | !//!B4 | !//!B4 |{/B} .b(baf) | .a2 (ge) |{/B} .b(baf) | .a2 (ge) | %542
 .g(g=fd) | !>!=f2 (_ec) | .g(g=fd) | !>!=f2 (_ec) |!ff! !>!_a4 | !>!c4 | .^c(c=A^G) | .e(e^d^c) | %550
 !>!^g4 | !>!c4 | .^c(cA^G) | .e(e^d^c) | !>!=a2 (3!>!^def | !>!^g2 (3!>!^c^de | %556
 !>!^f2 (3!>!B^c^d | !>!e2 (3!>!AB^c | ^G z z2 | z4 | z2!f! (3(e^d).^c | (3(e^d).^c (3(ed).c | %562
 ^g z z2 | z4 | z2 (3(e^d).^c | (3(e^d).^c (3(ed).c | ^g z (3(^ge).^d | z2 (3(!4!^G!2!E).!1!^D | %568
 z2 (3(^GE).^D | (3(^GE).^D (3(!4!G!2!E).!1!D |!p! !4!^C4- | !3!C4- | C4- | C4- | C ^C2 C- | %575
 C ^C2 C- | C ^C2 C- | C ^C2 (C |!pp! D) D2 D- | D D2 D- | D D2 D | (DFAd) | (f2 e2 | d2 A2) | %584
 (f2 e2 | d2 A2) | (d2 A2 | d2 A2) |!<(! .d.A .d.A | .d.A .d.b!<)! |!f! !>!b2 !>!a2 | .g(ged) | %592
 (B !>!d2 e) | A4 |{/B} !>!b2 !>!a2 | .g(ged) | Bd eA | G3 z | z4 | z4 | z4 | z4 |!p! (g2 =f2) | %603
 (_e2 d2) | (c2 d_e) | d4 | z4 | z4 | z4 | z4 |!p! (!4!d'2 c'2) | (!2!_b2 !1!a2) | (!2!g2 a2) | %613
 d4 | (g2 a2) | d4 | g2 a2 |"_poco rit." (d3 !tenuto!d) |!>(! (d3 !tenuto!d)!>)! | %619
!pp!!>(! (d3 !tenuto!d)!>)! | (d3 !tenuto!d) ||[K:Bb]!pp!"^in tempo" gz/d/ gz/a/ | bz/b/ az/b/ | %623
 gz/g/ az/g/ | d4 | dz/b/ az/g/ | =fz/g/ fz/d/ | dz/c/ dz/c/ | (A !>!d3) | d4- | d4 | (b3 a/g/) | %632
 (fbfd) | f4 |"_cresc." !trill(!T^f4 | gz/(d/ ^f)z/d/ | (d g2) z |!f! GB d/d/d | (d/B/).G G2 | %639
 gc dG | gc dG | gc dG | AA !>!d2 |!f! GB d/d/d | (d/B/).G G2 | gc dG | gc dG | gc g^c | %648
 !>!!1!d2 !>![dd']2 |!f! gz/d/ gz/a/ | bz/b/ az/b/ | gz/g/ az/g/ |{/g} d4 | dz/b/ az/g/ | %654
 fz/g/ fz/d/ | dz/c/ Az/G/ | G4 | dz/c/ Az/G/ | G4 |!f! (d2 c2) | (B2 G2) |!>(! G>G G>G | %662
 G>G G>G!>)! |!p! G>G G>G |"_dim." G>G G>G ||[K:G]!pp! (G3"_dolce" A | B d3) | (e2 (3gfe | g d3) | %669
 (G3 A) |!<(! (Bdga)!<)! |!>(! (b>g e>d)!>)! | g4 |!pp! (b3 a | g2 fe) | (B2 d2- | d4) | %677
!<(! (b3 a | g2 fe) | (Bd !tenuto!d2- | d4)!<)! |!pp! (G3 A | B !>!d3) | (!2!_e2 g=f | %684
 _e !>!!1!_B3) | (=B3 c | d !>!g3) | (!tenuto!b b2 a | g4) | G"^1" G2 G- | G"^2" G2 G- | %691
 G"^3" G2 G- | G"^4" G2 G- | G"^5" G2 G- | G"^6" G2 G- | G"^7" G2 G |!<(! (GBdg)!<)! |!mf! g4 | %698
 (GBdg) | g4 |!<(! (GBdg)!<)! |!f! Tg4 |!>(! Tg4 | Tg4 | Tg4!>)! |!p! (b2"_dim." ag | g2 ed) | %707
 (d2 BA | GEDB,) |!pp! G,4- | G,4- | G, z z2 | z4 | (E3 !2!e) |!<(! e4 | (e3 e')!<)! | e'4 | %717
 !4!e'e' !4!d'!3!c' | c'c' ba | !>!!3!aa !>!gf | !>!ff !>!ed | !>!gd !>!ge | gd cA | %723
!f!{/d} !>!b2 !>!a2 | .g.g.e.d | !>!b2 !>!a2 | .g.g.e.d | !>!b2 !>!a2 | .^g.g.=f.e | !>!b2 !>!a2 | %730
 .^g.g.=f.e | e'2 d'2 | !//!c'2 !/!b!/!a | !//!a2 !/!g!/!f | !//!f2 !/!e!/!d | %735
"_poco a poco stringendo" !/!g!/!d !/!g!/!e | !/!g!/!d !/!c!/!A | !/!g!/!d !/!g!/!e | %738
 !/!g!/!d !/!c!/!A | !/!g!/!d !/!c!/!A | !/!g!/!d !/!c!/!A | !/!g!/!d !/!c!/!A | %742
 !/!g!/!d !/!c!/!A |!ff! !/!g!/!e !/!d!/!B | !/!d!/!B !/!G!/!E | !/!B!/!G !/!E!/!D | %746
 !/!G!/!E !/!D!/!B, | G, z [DBg] z | G, z [DBg] z | !fermata!G,4 |] %750
V:2
 z3/2!mf! [B,DG]/ [B,DG]2 [B,D]2 | z3/2 [DGB]/ [DGB]2 [DG]2 | .[DGB]2 .[DGB]2 .[EGc]2 | [EGB]4 z2 | %4
!p! G4 z2 | z2 ([CE]2 [B,D]2) |!>(! (E4 F2!>)! | D4) z2 |!f! !>![GBd]6 | !>![Bdg]6 | %10
 .[dgb]2 .[dgb]2 .[egc']2 | [egb]4 z2 |!mp! (g2 ^c2 e2 | B2 d2 B2) | (f2 F2 f2 | %15
!>(! Bd^cdB_B)!>)! |!pp! (A4 ^G2 | A4 ^G2) | (A2 B2 AE | E2 D3 D) |!p! (A4 [D^G]2 | %21
!<(! A4 [D^G]2) | (A2!<)! d2 [DA]E | (E2 D2)) z2 |!f! z/ (D/G/B/ d) z [CDF] z | %25
 [B,DG] z [CEG] z z2 | (B,DBG[DF]c) | .[DGB]2 .[B,DG]2 z2 | z/!<(! (G/B/d/!<)! g2 f/d/c/F/) | %29
 (3(GBG) [EGe]2 z2 |!>(! ([DB]2 [B,G]2 E2)!>)! |!f! ^D2 (3(DEF)!>(! E2 | ^D2 (3(DEF)!>)! E2 | %33
"_dim." ^D2 (3(DEF) E2 | ^D2 z2 z2 | z6 |!pp! (B2 B2 e>d | B2) z2 z2 | (B2!<(! B2 f>A!<)! | %39
!>(! cB)!>)! z2 z2 |{/B} .e.f!<(! !>!g2{/A} .f.g | !>!a2!<)!{/c} .a.g !>!f2 |!>(! (e2 g2 f2!>)! | %43
 B) z z2 z2 |!p! (3(GEB, (3GEB, (3GEB, | (3GEB, (3GEB, (3GEB,) | (3(AFB, (3AFB, (3AFB, | %47
 (3AFB, (3AFB, (3AFB,) | (3(BEB, (3BEB, (3BEB,) |!<(! (3(eFE (3eFE (3eFE | %50
 (3BGE (3GEB, (3F^DB,)!<)! |!f! E z (!>!c2"_cresc." B) z | E z (!>!c2 B) z | (!>!c2 B) z .^A2 | %54
 .[EGB]2 .[GBe]2 .[FB^d]2 | .[GBe] z (3(gf).e (3(gf).e | e z (3(gf).e (3(gf).e | %57
 (3(gf).e (3(gf).e (3(gf).e | .[Beg]2 .[Begb]2 .[FB^d]2 |!ff! [GBe] z/ E/ (E2 B,2) | %60
 Ez/G/!<(! (G2 E2) | Bz/e/ e2!<)! z2 | [GBe]2 z2 z2 |1!p! (A2 ^A4 |!>(! B6- | B2)!>)! z2 z2 | %66
!pp!"_poco rit." [CF]6 :|2!pp! _B6- | B4 z2 || z2 z2!p! .[B_d].[=FB] | %70
!>(! .[D=F].[_B,D].[B,D]z.[A,C].[A,C]!>)! | .[_B,D] z z2 z2 | z6 | z6 | z .=F.D.F._B.d | %75
 =fz/_b/ (b2 f) z | _bz/d'/!<(! (d'2 b) z | (=f'd').g'.f'.d'._b!<)! |"_dim." .g.=f.d._B.=F.D | %79
 [D=F]2 z2 z2 | ([D=F]2 [_EG]2 [DF]2 | [C=E]6) | (=F>c) .c2 .c2 | %83
 [=F_d]!pp!.[F_A].[FA].[FA].[FA].[FA] | [=F_A].[FA].[FA].[FA].[FA].[FA] | %85
 [=F_A].[FA]!<(!.[FA].[FA].[FA].[FA] | [=F_A].[FA].[FA].[FA]!<)!.[FA].[FA] | z!mf! (_a_ba=f_e) | %88
 (_d2 [_G_B]2 [=F_A]2) | (_B>!>(!_e) .e2 .e2!>)! | [_E_A_e]6 | (_B>"_dim."_e) .e2 .e2 | [_E_A_e]6 | %93
!p! (_B>"_dim."e) .e2 .e2 |!pp! [=FAc=f]6 | (_B>c) .e2 .e2 | [=FAc=f]6 | (^c>"_cresc."^f) .f2 .f2 | %98
!<(! !>![F^A^cf]6!<)! | [FBf] z!f! (3(B,^C).^D (3(DE)F | (3(EF).G (3(GA).B (3(^A^c).F | %101
 (F>B) .B2 .B2 | G2 .E.G .[EGA].[EGA] |!f! [DFA] z (3(DE).F (3(FG).A | (3(GA)_B (3(Bc).d (3(eg).c | %105
 (!>!=F>=f) f2 f2 | ._d2 ._B2 ._e2 |!f! (_A>_a) .[Aa]2 .[Aa]2 | (_A>_a) .[Aa]2 .[Aa]2 | %109
 (=A>=a) .[Aa]2 .[Aa]2 | (A>a) .[Aa]2 .[Aa]2 |!ff! (d>d') .[dd']2 (d>d') | .[dd']2 (d>d') .[dd']2 | %113
"_dim." .d.d' .d.d' .D.d |!>(! .D.d z2 z2!>)! | z3/2!f! [B,DG]/ [B,DG]2 [B,D]2 | %116
 z3/2 [DGB]/ [DGB]2 [DG]2 |!>(! .[DGB]2 .[DGB]2 .[EGc]2 | [DGB]4!>)! z2 |!p! G4 z2 | %120
 z2 ([CE]2!>(! [B,D]2 | E4 F2)!>)! |!pp! [B,D]4 z2 |!f! [G_Bd]6 | [_Bdg]6 | %125
 .[dg_b]2 .[dgb]2 .[_egc']2 | [dg_b]4 z2 | z!mp! (_bc'bag) |"_dim." (=fa)(ad) f2 | %129
 (e2!>(!{/g} =f2 e2 | d=fefd_d)!>)! |!pp! (c4 =B2 | c4 B2) |!<(! (c2!<)!!>(! d2 cG!>)! | %134
 G2 =F2) z F | (c2 !>!=f2 =F2) | (c2 !>!=f2 =F2) | (c2 !>!=f2 =F2) | (c2 !>!=f2 =F2) | %139
!f! (3(=fd_B (3=FBd (3_eAF) | (3(d_B=F) .[_EGB]2 z2 | (D=Fd_BA_e) | .[=F_Bd]2 .[DFB]2 z2 | %143
!ff! (3(_b=fd (3_Bdf (3A_ef) | (3(_Bd=f) .[B_eg]2 z2 | ([=Fd]2 [D_B]2 G2) | ^F2!>(! (3(FGA) G2 | %147
 F2 (3(FGA) G2 | F2 (3(FGA)!>)! G2 |!pp! F2 (!tenuto!d2 !tenuto!d2 | %150
 !tenuto!d2 !tenuto!d2 !tenuto!d2) | (!tenuto!d2 d2 g>_e | d4) z2 | (!tenuto!d2 d2 ac | %154
 (_e d3) d2) |!<(! (3(d=BG (3DGB) .[Fc]2!<)! | [Gd]>G !>![Ge]4 |!>(! (3(BGD (3B,D!4!G (3!2!FAc | %158
 (3B!>)!B,D G2) z2 |!f! (3(gdB (3GBd .[cdf]2) | [Gd]>G !>![Ge]4 | (3(BGD (3B,DG) .[FA]2 | %162
!ff! G z (!>!_E2 D) z | [_B,D] z (!>!_E2 D) z | (!>![G,-_B,-_E]2 [G,B,D]) z .[G,B,^C]2 | %165
 .[G,=B,D]2 .[B,DG]2 .[CD^F]2 | [B,DG] z!f! (3(_ba).g (3(ba).g | g z (3(_ba).g (3(ba).g | %168
 (3(_ba).g (3(ba).g (3(ba).g | .[g=b]2 Td'2 Td2 |!ff! [GBdg]z/g/ (g2 d) z | gz/b/ (b2 g) z | %172
 d'z/g'/ g'2 z2 | bz/d'/ d'2 z2 | %174
!p!!<(!"_<sym>dynamicMezzo</sym>" (=A2 !tenuto!^A2 !tenuto!A2!<)! | [GB]6) |!p!!>(! [CE]6!>)! | %177
 [CD]6 |!p! [B,D] z (G2 D) z | G z (B2 G) z | (d2"_dim." g2) z2 | (B2 d2) z2 |!pp! (E2 G2) .G2 | %183
 (G2 [B,E]D[I:staff +1]B,G,) |[I:staff -1] x6 | x6 | x6 | x6 | z (d'e'd'bg) | (e4 d2) | %190
 !arpeggio![GBdg]2 z2 z2 | !arpeggio![G,B,DG]2 z2 z2 |!8va(! !arpeggio![gbd'g']2!8va)! z2 z2 | z6 | %194
"_poco rit."!>(! [B,E]6 | [DF]6!>)! |!pp!!>(! !arpeggio![B,GB]6 |[K:bass] [D,G,B,]6 | %198
 !fermata![D,G,B,]6!>)! |][K:Bb][M:2/4][K:treble]!mp! [G,B,D]4 | [G,B,E]4 | [G,B,D]3!>(! D/D/!>)! | %202
 D(ECPB,/A,/) | [G,B,]4 | =E2!>(! _E2!>)! |!<(! [B,D]3 [A,C]!<)! |!mf! (B,2!>(! B,/D/G/A/)!>)! | %207
!pp! [Bd]4 | (e2 gG/A/ | [GB]2) [GB][GB]/[Ac]/ | (dedc/G/) |!<(! G[=FA][^FA][=FB]!<)! |!f! AA B2 | %213
 ([GB]2"_dim." [Bd][Ac]) |!p! ([Ac]"_rit."[A^c]!>(![Bd][GB])!>)! | %215
!pp!"_in tempo" ([Bd]2 [Bf]/g/f/d/ | cdBG) | B2- B/c/_d/f/ |!>(! c4!>)! |!<(! ([B=d]2 [Bf]/g/f/d/ | %220
 cd BG)!<)! |!mf!!<(! (Bd cg)!<)! |!>(! [^Fd]3!>)! !fermata!z | %223
[K:bass] (6:4:6(E,/F,/A,/C/A,/F,/ (6:4:6E,/F,/A,/C/A,/F,/ | %224
 (6:4:6E,/F,/A,/C/A,/F,/ (6:4:6E,/F,/A,/C/A,/F,/) | %225
 (6:4:6(E,/F,/A,/C/!<(!A,/F,/ (6:4:6E,/F,/A,/C/A,/F,/ | %226
 (6:4:6E,/F,/A,/C/A,/F,/ (6:4:6E,/F,/A,/C/A,/F,/)!<)! |[K:treble]!p! (c'2-"_cresc." c'/d'/c'/g/) | %228
 (fd' c'2) | (c'f'!<(! (5:4:5d'/f'/d'/c'/a/) | (6:4:6(f/a/g/f/a/d'/) c'2!<)! | %231
!f! z"_dim." .[dfb].[Bdf].[FBd] | z .[c^fa].[Bdg].[GBd] | %233
!p! .[G_B_d]"_dim.".[_D_GB] .[B,DF].[F,B,D] | %234
[K:bass]!>(! .[F,A,C].[E,F,A,] .[C,E,F,].[E,F,A,]!>)! |!pp!"_rit." [D,F,B,]4 | [E,^F,A,]2 B,2 | %237
!pp! [G,B,]2 z2 | z2[K:treble] z !tenuto!e/!tenuto!d/ | z2 z!p! !tenuto!e/!tenuto!d/ | %240
 !tenuto!e/!tenuto!d/ z z2 | z4 ||[K:G]!pp!!8va(! !arpeggio![gbd']2 !arpeggio![gbd'g']2 | %243
 !arpeggio![gbe'] !arpeggio![gbd']3 | %244
 !arpeggio![fac'e']!arpeggio![fac'd']!arpeggio![fac'e']!arpeggio![fac'd'] | %245
 !arpeggio![gbd'] !arpeggio![dgb]3 | !arpeggio![gbd']2 !arpeggio![gbd'g']2 | %247
 !arpeggio![gbe'] !arpeggio![gbd']3 | %248
 !arpeggio![fac'e']!arpeggio![fad']!arpeggio![dfb]!arpeggio![dfa] | !arpeggio![dgb]4 | %250
!<(! !arpeggio![dfa]!arpeggio![fad']!arpeggio![fad']!arpeggio![fad'] | %251
 !arpeggio![gbe']!arpeggio![gbd']!arpeggio![gbd']!<)!!arpeggio![gbd'] | %252
!>(! !arpeggio![dfa]!arpeggio![fad']!arpeggio![fad']!arpeggio![fad'] | %253
 !arpeggio![gbe'] !arpeggio![gbd']3!8va)!!>)! | %254
!pp! (.[G,B,E]/.D/.[G,B,E]/.D/) (.[G,B,E]/.D/.[G,B,E]/.D/) | %255
 (.[G,B,E]/.D/.[G,B,E]/.D/) (.[G,B,E]/.D/.[G,B,E]/.D/) | %256
 (.[F,CE]/.D/.[F,CE]/.D/) (.[F,CE]/.D/.[F,CE]/.D/) | %257
 (.[G,B,E]/.D/.[G,B,E]/.D/) (.[G,B,E]/.D/.[G,B,E]/.D/) | ([G,B,D]2 [CG]2 | [B,D]2 [G,CG]2 | %260
 [G,D]2 [G,CG]2 | [G,D]2 [G,^CG]2) |[K:bass]!pp! [G,D] z [G,C] z | .[G,=B,]._B, .A, z | %264
 .^G,.A, .D, z | ^G, z =G, z |!ppp! [=C,D,^F,]4- | [C,D,F,]4- | [C,D,F,] z z2 | z4 || %270
[K:Bb]!pp! [D,G,B,D]4 | [G,B,=E]3 [G,B,_E] | [G,B,D]2[K:treble] [G,B,D][CD^F] | [B,DG]2 [GB][DA] | %274
!<(! [B,DG][C=FA][D^FA][D=FB]!<)! |!f! [D^FA][C=FA] [B,DG]2 | [A,^CG]2!>(! [B,DG][CD^F]!>)! | %277
 (^F G3) |!p!!<(! !///-!G,2 G2!<)! |!>(! !///-!G,2 G2!>)! |!p!!<(! !///-!G,2 G2!<)! | %281
!>(! !///-!G,2 G2!>)! |!p! ([DB]>[CA]"_dim." !tenuto![B,G]/!tenuto!G/!tenuto!G/!tenuto!G/) | %283
!>(! [B,G] z z2!>)! |"_rit." (DGB-[Bd]) | !fermata![Bd]4 |][K:G][M:3/4]!pp! .[B,DG]2 z2 z2 | %287
 .[CDF]2 z2 z2 | .[B,DG]2 z2 z2 | x2 z2 z2 | x2 z2 .D2 | .D2 .D2 .F2 | .G2 z2 .[Bd]2 | [GB]4 z2 | %294
!mp! z2 z!<(! d' .d'2 | !>!d'6!<)! | z2 z!<(! d' .d'2 | !>!e6!<)! |"_cresc." (d2 g2 b2 | %299
 a2 d'2 e'd') |!mf! (g'2 Pb2 a2 | g2) z2 z2 ::!f! z2 z [fa] .[fa]2 | [fa]6- | [fa]2 ([eg]2 [df]2 | %305
 [eg]2 [fa]2 [gb]2) | ([fa]2 .[bd']) z (.[gb]2 | [fa]2 [df]4) | ([^ce]2 [fa]2 .[cfa]2) | [df]4 z2 | %310
 z2 z [fa] .[fa]2 | [fa]6- | [fa]2 ([eg]2 [df]2 | [eg]2 [fa]2 [gb]2) | ([fa]2 .[bd']) z .[gb]2 | %315
 [fa]2 [df]4 | ([^c-e]2 [ca]2) [ca]2 | d2 z2 z2 | z2 z!f! [Gc] [Gc]2 | [FB]6 | z2 z [EA] [EA]2 | %321
 [DG]6 |!>(! [CF]6 | [B,E]6!>)! |!p! D6 |!pp! .[B,DG]2 z2 z2 | .[CDF]2 z2 z2 | .[B,DG]2 z2 z2 | %328
 x2 z2 z2 | x2 z2 .D2 | .D2 .D2 .F2 | .G2 z2 .[Bd]2 | [GB]4 z2 |!mp! z2 z!<(! d' d'2 | !>!d'6!<)! | %335
 z2 z!<(! d' d'2 | !>!e6!<)! |"_cresc." (d2 g2 b2) | (a2 !2!d'2 !3!e'!2!d') | %339
!mf! (!5!g'2 P!2!!3!b2 !1!a2) | g2 z2"_Fine" z2 ::[K:C][M:3/4]!p! (EAGEFG | EAGEFG) | %343
!<(! (EGFGE!4!G!<)! |!f! !3!F!>(!!1!CECEG)!>)! |!p! (!1!EAGEFG | EcGEFG) | x4 B2 | [Ec]4 z2 :: %349
!f! G z ((!>![_E_e]2 [Dd])) z | G z ((!>![_E_e]2 [Dd])) z | G z (_A_a) (Gg) | (Ff) (Dd) (Cc) | %353
 [B,B] z ((!>![_E_e]2 [Dd])) z | [B,B] z ((!>![_E_e]2 [Dd])) z | [B,B] z (Gg Gg | GgGgGg) | %357
 (GgGgGg | GgGgGg) |!>(! (GgGgGg | GgGgGg)!>)! |!>(! (GgGgGg | GgGgG=F)!>)! | %363
!p! (!1!E!4!A!3!G!5!c!3!G!2!F | EAGcGF) |!<(! (EGFGEG!<)! |!f! F!>(!CECEG)!>)! |!p! (EAGcGF | %368
 EAGcGF) | (!1!Ec!2!Fc!5![DB]F) | [Ec]4 z2 :|[K:G][M:2/4]!mp! [Bd]2 [Ac]2 | [GB]2 z2 | %373
!p! (G,B, G2- | GFEF) |!mp! [Bd]2 [Ac]2 | [GB]2 z2 |!p! ([G,B,]D[B,^D]F | [B,E]GBe) | %379
!f! !>![=db]2 !>![ca]2 | .[Bg]([Bg][ce][Bd]) | [GB]!<(!(Bde)!<)! | A4 | !>![db]2 !>![ca]2 | %384
 .[Bg]([Bg][ce][Bd]) | .[GB].d.[Bg].[FA] | G3 z |!ff! B, (!>!B,2 A, | G,4) | .G(G_ED) | G,4 | %391
!p! (3(B,=FG (3DFG) | (3(C_EG (3B,=FG) | (3(C_EG (3CEG) | (3(CD^F (3B,DG) |!f! B, (B,2 A, | G,4) | %397
 .G(G_ED) | G,4 |!p! (3(GB,=F (3GDF | (3GC_E (3GB,=F) | (3(GC_E (3GCE | %402
"_ritard." (3_AC_E!>(! (3GCE) | (3(_AC_E (3GCE)!>)! |!pp! (3(^FCD (3FCD) | %405
"^in tempo"!mf!!<(! DE =F^F!<)! | [B,DG]3 z | (G,B, G2- |!>(! GF EF)!>)! |!f! !>!B=c !>!^c^d | %410
!<(! !>![GBe]2 !>![=ca]2!<)! | .[B=d].[_Be] .[Af].[cf] | .[=Bg](d/B/ G) z | %413
!ff! !>![Bb]2{/[Ba]} !>![Ba]2 | !>![Bg]2{/[Bf]} !>![Bf]2 | !>![Be]2 !>![Bf]2 | B3 B | %417
 (3BBB (3[B,B][B,B][B,B] | (3[B,B][B,B][B,B] (3[B,B][B,B][B,B] | %419
 (3[B,B][B,B][B,B] (3[B,B][B,B][B,B] | .[B,B].[^D^d].[Ee].[Gg] | [F^df]4 | %422
 .[B,B].[^D^d].[Ee].[Gg] | [F^df]4 |"_dim." (B,^D!>(!EG | B,^DEG)!>)! |!>(! (B,^DEG | B,^DEG)!>)! | %428
!p! (B,"_poco a poco ritardando"^D B2 | B,E B2 | B,!>(!^E B2 | (3B,FB (3B,GB)!>)! | %432
"^in tempo"!pp! [EGB] z [EGB] z | [EGB] z [EGB] z | [EGB] z [EAc] z | [EGB] z [EGB] z | %436
 [EGB] z [EGB] z | [DGB] z [DGB] z | [DGB] z [DGB] z | (3([B,^DF]B).B (3(Bb).b | %440
!p! e'z/(b/ e')z/(f'/ |"_cresc." g')z/(g'/ f')z/(g'/ |!<(! e')z/(e'/ f')z/e'/!<)! |{/d'} b4 | %444
!mf!!8va(! bz/(b'/ a')z/(g'/ |"_cresc." f')z/(a'/ g')z/(f'/ |!<(! e'')!8va)!z/(b/ f')z/b/ | %447
 (b !>!e'2)!<)! z |!ff! EG B/B/B | (B/G/).E !>!E2 | eA BE | eA BE | eA BE | [E^A]E [^DB]B, | %454
!f! e/B/g/B/ b/B/b/B/ | b/B/g/B/ e/B/e/B/ | e'/e/a/e/ e'/e/b/e/ | e'/e/a/e/ e'/e/b/e/ | %458
 e'/e/a/e/ e'/e/^a/e/ | !>!b/f/^d/f/ B/F/^D/B,/ |!f! (B/G/E/B,/ B/G/E/B,/ | B/G/E/B,/ B/G/E/B,/) | %462
 (B/G/E/B,/ B/G/E/B,/) | (B/G/D/B,/ B/G/D/B,/) | (B/G/E/B,/ B/G/E/B,/ | B/G/D/B,/ B/G/D/B,/) | %466
 (B/G/D/B,/ B/F/^D/B,/ | B/G/E/B,/ B/G/E/B,/) | (B/G/=D/B,/ B/G/^D/B,/ | B/G/E/B,/ B/G/E/B,/) | %470
 (B2!>(! A2 | [B,EG]2 [G,CE]2)!>)! | [G,CE]4- | [G,CE]4- |"_dim." [G,CE]4- | [G,CE]4 || %476
[K:E]!p! [B,EG]4- | [B,EG]4 | (([CE-A]4 | [B,EG]4)) | (B4 | e2 BG) | [DB]4 |"_dim." (3(BeB (3GEE) | %484
!pp! [CE]4- | [CE]4 | ([GB]3 [FA] | [EG]2 [B,F][G,E]) |!<(! [CE]4- | [CE]4!<)! |!>(! ([GB]3 [FA] | %491
 [EG]2!>)! [B,F][G,E]) |!pp! [B,G]4- | [B,G]4 |!ppp! [=CE=G]4- | [CEG]4 | [B,E^G]4- | [B,EG]4 | %498
 ([DGB]2 [DFA]2 | [EG]GBe) |!p! ([eg]2 [cf]2 | [Be]2 [cf]2) | ([eg]2 fc | e4) | ([dg]2 [cf]2 | %505
 [Be]2 [cf]2 | [dg]2 fd |!<(! e4)!<)! |!mf! (G2 FC | [G,E]4) | (G2 FC | [G,E]4) | G2"_dim." (FC | %513
 G2 FC |!>(! G2 FC | G2 FC)!>)! |!pp! [G,B,EG]4- | [G,B,EG]4- | [G,B,EG]4- | [G,B,EG]4 || %520
[K:G]!pp! !>![Bg]2 !>![Af]2 | .[Ge].[Ge].[Gc].[GB] | !>![Bg]2"_cresc." !>![Bf]2 | %523
 .[Ge].[Ge].[Gc].[GB] |"_cresc." !>![Bg]2 !>![Bf]2 |!<(! .[Be].[Be].[GB].G!<)! | %526
!<(! !>![^Ag]2 !>![Af]2!<)! | .[Ge].[Ge].[Ec].[GB] |!f! [D^c] z z2 | z/ G/A/G/ z/ F/G/F/ | %530
 z/ E/F/E/ z/ D/E/D/ | z/ ^C/D/C/ z/ ^A/B/A/ |!f! !//-!B2 B,2 | !//-!B2 B,2 | !//-!B2 B,2 | %535
 !//-!B2 B,2 | .[B,B].B.^c.^d | !>!e2 .f.g |!f! (!//-!B2 B,2 | !//-!B2 B,2) | %540
 z/ (!>!B/b/B/ b/B/b/B/ | !//-!b2 B2) | z/ (!>!G/g/G/ g/G/g/G/ | !//-!g2 G2) | (!//-!g2 G2 | %545
 !//-!g2 G2) |!ff! ._a(a_ec) | ._e(ec_A) | .[^C^c].[Cc] z .[Cc] | z .[^G^g]z.[Gg] | [^G^g](g^d^B) | %551
 .^d(d^B^G) | .[^C^c].[Cc] z .[Cc] | z .[^G^g] z .[Gg] | (3AB^c (3F^GA | (3^GAB (3E^FG | %556
 (3F^GA (3^DEF | (3EF^G (3^C^DE | [^B,^D^G]!ff! (!>!GED) | .^G(GE^D) | ^G z !>![^C^^F^A]2 | %561
 !>![^C^^F^A]2 !>![CFA]2 | .[^B,^D^G] (GED) | .^G(GE^D) | ^G z !>![^C^^F^A]2 | %565
 !>![^C^^F^A]2 !>![CFA]2 | [^B,^G^B] z [G^ce][GB^d] | z2 x2 | z2 x2 | x4 |!p! z2 e^d | ^c2 ^G2 | %572
 ^G B2 ^c | [E^G]4 |!p! [^ge']2 [fg^d']2 | .[e^g^c']([ec'][fa][e^g]) | ([e^g]2!>(! [eg^c']2 | %577
 [=ga^d']2 [gae']2)!>)! |!pp! [faf']2 [=gae']2 | .[fa=d']([fad'][=gb][fa]) | [gb] [gd']2 [ge'] | %581
 [fa]4 | (AfGe | FdEA) | (AfGe | FdEA) | (FdEA) | (FdEA) | (F/d/E/A/ F/d/E/A/ | %589
!<(! F/d/E/A/ F/d/)!<)! z |!f! !>![Bd]2 !>![Ac]2 | [GB]3 z |!f! ([GB]2!<(! .[Gd].[Ge])!<)! | A4 | %594
 !>![DBd]2 !>![FAc^d]2 | [EGBe]2 [Ac]2 | [DGB] z [^CG_B][=CFA] | [B,DG]!<(! B,/A,/ G,!<)! z | %598
 B, !>!B,2 A, | G,4 | .G(G_ED) | G,4 |!p! (3(GB,=F (3GDF | (3GC_E (3GB,=F | (3GC_E (3GCE | %605
!<(! (3^FA,D (3FAd)!<)! |!f! .f !>![Ff]2 [=E=e] | [Dd]4 | .[dd']([dd'][_B_b][Aa]) | [Dd]4 | %610
!p! (3(FCD (3ACD | (3_B_B,D (3FCD) | (3(G_B,D (3GC_E | (3DFA (3DFA) | (3(CGA (3CGA) | %615
 (3(DFA (3DFA) | (3(CGA (3CGA) |"_poco ritard.." (3z (DF- [FB]2) |!>(! (3z (DG- [Gd]2)!>)! | %619
!pp! (3z (D^G-!>(! [GB]2) | (3(DFB (3D_B!>)!d) ||[K:Bb]!pp!"^in tempo" [DGB] z [B,DG] z | %622
 [B,DG] z [B,DG] z | [B,DG] z [B,DG] z | [B,G]z/[DB]/ [CA]z/[DB]/ | [B,DG] z [B,DG] z | %626
 [B,D=F] z [B,DF] z | [A,EG] z [A,EG] z | [A,D^F] z [A,DF] z |!8va(! g'z/(d'/ g')z/(a'/ | %630
 b')z/(b'/ a')z/(b'/ | g')z/(g'/ a')z/g'/ |{/g'} d'4 | d'z/(d''/ c'')z/(b'/ | %634
"_cresc." a')z/(c''/ b')z/(a'/ | g')z/(d'/ a')z/d'/ | (d' g'2)!8va)! z |!f! gb d'/d'/d' | %638
 (d'/b/).g g2 | g'c' d'g | g'c' d'g | g'c' d'g | [g^c']g [^fd']d |!f! g/d/b/d/ d'/d/d'/d/ | %644
 d'/d/b/d/ g/d/g/d/ | g'/g/c'/g/ g'/g/d'/g/ | g'/g/c'/g/ g'/g/d'/g/ | g'/g/c'/g/ g'/g/^c'/g/ | %648
 d'/a/^f/a/ d/A/^F/D/ |!f! (d/B/G/D/) (d/B/G/D/) | (d/B/G/D/) (d/B/G/D/) | (d/B/G/D/ d/B/G/D/) | %652
 (d/B/=F/D/ d/B/F/D/) | (d/B/G/D/ d/B/G/D/) | (d/B/=F/D/ d/B/F/D/) | (d/B/F/D/ d/B/^F/D/) | %656
 (d/B/G/D/ d/B/G/D/) | (d/B/=F/D/ d/B/^F/D/) | (d/B/G/D/ d/B/G/D/) |!f! (d2 c2 | [DGB]2 [B,EG]2) | %661
!>(! [B,EG]4- | [B,EG]4-!>)! |!p! [B,EG]4- |"_dim." [B,EG]4 || %665
[K:G]"^molto tranquillo"!pp! [DGB]4- | [DGB]4 | [EGc]4 | [DGB]4 |!<(! (d4 | g2 dB)!<)! | %671
!>(! (d2 c2 | [DGB]4)!>)! |!pp! [EG]4- | [EG]4 | ([Bd]3 [Ac] | [GB]2 [DA][B,G]) | [EG]4- | %678
!<(! [EG]4 | ([Bd]3 [Ac] | [GB]2!<)! [DA][B,G]) |!pp! [DG]4- | [DG]4 | [_EG]4- | [EG]4 | [DG]4 | %686
 [GB]4 | (d2 c2 | [GB]4) | ([gb]2 [ea]2 | [dg]2 [ea]2 | [gb]2 ae | g4) | ([gb]2 [ea]2 | %694
 [dg]2"_cresc." [ea]2 | [gb]2 ae |!<(! g4)!<)! |!mf! (B2 AE | [B,G]4) | (B2!<(! AE | [B,G]4)!<)! | %701
!f! (B2 AE | B2 AE |!>(! B2 AE | B2 AE)!>)! |!p!"_dim." [DGB]4- | [DGB]4- | [DGB]4- | [DGB]4 | %709
!pp! !>![db]2 !>![ca]2 | .[Bg].[Bg] .[Be].[Bd] |"_cresc." !>![db]2!<(! !>![ca]2 | %712
 .[Bg].[Bg] .[Be].[Bd]!<)! | !>![Bdb]2 !>![Ada]2 | x =g=fe | !>![Beb]2 !>![Aea]2 | %716
 .[^Geg].[Gg] .[=F=f].[Ee] | [Aea]2 z2 | [Ee][Ee] [Ee][Ee] | [Ee][Ee] [Ee][Ee] | %720
 [Cc][Cc] [Cc][Cc] | [DGd] z [EGe] z | [DGB] z [DFA] z |!f! (G/D/B,/G,/ G/D/B,/G,/) | %724
 (G/D/B,/G,/ G/D/B,/G,/) | (G/D/B,/G,/ G/D/B,/G,/) | (G/D/B,/G,/ G/D/B,/G,/) | %727
 (^G/D/B,/^G,/ G/D/B,/G,/) | (^G/D/B,/^G,/ G/D/B,/G,/) | (^G/D/B,/^G,/ G/D/B,/G,/) | %730
 (^G/D/B,/^G,/ G/D/B,/G,/) |!f! [A,EA] z z2 | !//-!e2 E2 | !//-!e2 E2 | !//-!c2 C2 | %735
 [EGd] z"_pù mosso" [EGe] z | [GB] z [FA] z | [DGd] z [EGe] z | [GB] z [FA] z | [GB] z [FA] z | %740
 [GB][GB]"_cresc." [FA][FA] |!<(! [GB] z [FA] z | [GB][GB] [FA][FA]!<)! |!ff! !//-![GB]2 D2 | %744
 !//-![Bd]2 G2 | !//-![dg]2 B2 | [gb]/d/[gb]/d/ [bd']/g/[bd']/g/ | [gbd'g']2 z2 | [gbd'g']2 z2 | %749
 !fermata![G,G]4 |] %750
V:3
 z3/2 G,,/ G,,2 G,2 | z3/2 G,,/ G,,2 [G,B,]2 | .G,,2 .G,2 .C,2 | (G,2 G,,2) z2 | [D,B,]4 z2 | %5
 z2 D,4- | D,2 (D,4 | G,,2) G,2 z2 | [G,,G,]6 | [G,,G,]6 | .[G,,G,]2 .[G,G]2 .[C,C]2 | %11
 .[E,E]2 .[E,,E,]2 z2 | [E,B,^C]2 z2 z2 | [F,B,D]2 z2 z2 | ([F,^A,E]6 | [B,D]2) z2 z2 | %16
!ped! D,F,CF,CF,!ped-up! |!ped! D,F,CF,CF,!ped-up! |!ped! D,F,CF,CF,!ped-up! | %19
!ped! D,F,CF,CF,!ped-up! |!ped! D,F,CF,CF,!ped-up! |!ped! D,F,CF,CF,!ped-up! | %22
!ped! D,F,CF,CF,!ped-up! |!ped! D,F,CF,CF,!ped-up! | [G,,B,,D,G,]4 [A,,D,F,] z | %25
 [B,,G,] z [C,G,] z z2 | D,4 D,2 | G,,2 G,2 z2 | [G,,B,,D,G,]4 [A,,C,D,F,]2 | %29
 [B,,D,G,]2 [C,E,G,]2 z2 | D,4 E,2 | F,2 (F,^D, E,2) | F,2 (F,^D, E,2) | F,2 (F,^D, E,2) | %34
 F,2 z2 z2 | z6 | (3(E,G,E (3E,G,E (3E,G,E) | (3(E,G,E (3E,G,E (3E,G,E) | %38
 (3(^D,F,^D (3D,F,D (3D,F,D) | (3(^D,F,^D (3D,F,D (3D,F,D) | (E,B,EB,) (A,C |EC) (F,A,EA,) | %42
 [G,B,]E [A,C]E [^A,^C]E | [B,^D] (CB,A,G,F,) | E,2 z2 z2 | !tenuto!E,2 (E,2 G,E, | .^D,2) z2 z2 | %47
 !tenuto!^D,2 (D,2 F,>D,) | G,4 [G,,G,]2 | [C,C]4 [C,,C,]2 | .[B,,B,]2 .B,,2 .B,,2 | %51
 E, z (!>!C2 B,) z | E, z (!>!C2 B,) z | (!>!C2 B,) z .[C,E,G,]2 | %54
 .[B,,E,G,]2 .[B,,B,]2 .[B,,B,]2 | .[E,,E,] z [E,E]4 | [E,,E,] z [E,E]4 | [E,E]4 .^A,2 | %58
 .B,2 .B,2 .B,2 | [E,,E,] z/ E,/ (E,2 B,,2) | E,z/G,/ (G,2 E,2) | B,z/E/ E2 z2 | [^C,^C]2 z2 z2 |1 %63
[K:treble] [^CEG-]6 | [DG]6- | [DG]2 z2 z2 |[K:bass] D,6 :|2 ([^CE]6 | D4) z2 || z6 | %70
 z2 z2 [=F,,=F,] z | _B,,z/B,,/ (!>!B,,2 =F,,) z | _B,,z/D,/ (!>!D,2 B,,) z | %73
 =F,z/(D,/ G,).F,.D,._B,, | .=F,, z z2 z2 | .[_B,D].[B,D].[B,D].[B,D].[B,D].[B,D] | %76
 .[_B,D].[B,D].[B,D].[B,D].[B,D].[B,D] | .[_B,D].[B,D].[B,D].[B,D].[B,D].[B,D] | [_B,D] z z2 z2 | %79
 [=F,_B,]2 z2 z2 | z2 _B,4 | _B,6 | A, z z2 z2 | _D, z _D,, z z2 | _D z _D, z z2 | %85
 _D, z _D,, z z2 | z!pp! ._D,,.=F,,._A,,._D,.=F, | [_A,_D=F]6- | [A,DF]2 [_A,_D]4 | [_A,_B,_D]6 | %90
 [_A,C]6 | [_A,_B,_D]6 | [_A,C]6 | [_G,_B,C]6 | [=F,A,C]6 | [_G,_B,C]6 | [=F,A,C]6 | %97
 !>![E,^F,^A,^C]6 | [E,F,^A,^C]6 | [^D,F,B,] z [B,,,B,,]4 | [E,,E,]2 [^C,,^C,]2 [F,,F,]2 | %101
 [B,,,B,,] z [B,,B,]4 | [E,,E,]4 [A,,A,]2 | [D,,D,] z !>!D,4 | [G,,G,]2 .G,._B, .C,.C | %105
 [=F,,=F,]4 F,2 | [_B,,_B,] z B,_D _E_E, | [_A,C_E]6 | [_G,_A,C_E]6 | [=E,=A,^C=E]6 | %110
 [_E,G,A,^C]6 | [D,F,A,=C] z !//-!D,,2 D,2 | !//-!D,,3 D,3 | [D,,D,] z z2 z2 | z2 .D,,.D, .D,,.D, | %115
 z3/2 G,,/ G,,2 G,2 | z3/2 G,,/ G,,2 [G,B,]2 | .[G,,G,]2 .[G,,G,]2 .C,2 | [G,,G,]4 z2 | %119
 [D,B,]4 z2 | z2 D,4- | D,2 (D,4 | G,2) G,,2 z2 | [G,,G,]6 | [G,G]6 | .[G,,G,]2 .[G,,G,]2 .[C,C]2 | %126
 [G,,G,]4 z2 |[K:treble] [G,DE]6 | [A,D=F]6 | ([A,^CG]6 | [D=F]4) z2 |[K:bass] (=F,A,_EA,EA,) | %132
 (=F,A,_EA,EA,) | (=F,A,_EA,EA,) | (=F,A,_EA,EA,) | (=F,A,_EA,EA,) | (=F,A,_EA,EA,) | %137
 (=F,A,_EA,EA,) | (=F,A,_EA,EA,) | !>![_B,,D,]4 .[C,_E,]2 | .[D,=F,]2 .[_E,G,]2 z2 | %141
 [=F,,=F,]4 F,2 | ._B,,2 ._B,2 z2 | !>![_B,,D,]4 .[C,_E,]2 | .[D,=F,]2 .[_E,G,]2 z2 | %145
 =F,4 [_E,G,]2 | A,2 (A,^F, G,2) | A,2 (A,F, G,2) | A,2 (A,F, G,2) | [D,A,]2 z2 z2 | z6 | %151
 (3(G,=B,G (3G,B,G (3G,B,G) | (3(G,B,G (3G,B,G (3G,B,G) | (3(F,A,F (3F,A,F (3F,A,F) | %154
 (3(F,A,F (3F,A,F (3F,A,F) | [G,,G,]4 [A,,A,]2 | [B,,B,]2 !>![C,C]4 | D,4 .D,2 | .G,2 .G,,2 z2 | %159
 [G,,G,]4 [A,,A,]2 | [B,,B,]2 !>![C,C]4 | D,4 .[D,C]2 | [G,B,] z (!>!_E,2 D,) z | %163
 G,, z (!>!_E,2 D,) z | (!>!_E,2 D,) z [G,,=E,]2 | .[D,,D,]2 .[D,,D,]2 .[D,,D,]2 | %166
 [G,,G,] z !>![G,_B,]4 | G,, z [G,_B,]4 | [=F,G,_B,]2 [=E,G,B,]2 [_E,G,B,]2 | %169
 [D,G,=B,]2 [D,G,A,C]2 [D,F,A,C]2 | [G,,G,]z/G,/ (G,2 D,) z | G,z/B,/ (B,2 G,) z | %172
 [D,G,B,D]2 z2 z2 |[K:treble] [DGB]2 z2 z2 |[K:bass] ^C2 [CE]2 [CE]2 | D6 | [D,G,]6 | [D,F,]6 | %178
 [G,,G,] z (G,2 D,) z | G, z (B,2 G,) z | (D2 G2) z2 | (B,2 D2) z2 | [^C,E,]6 | D,4 z2 | %184
"^ritard." (E,>A,) A,2 A,2 | (A,>D) D2 D2 |"^in tempo ma molto tranquillo" [G,B,]6 | [F,C]6 | %188
 !arpeggio![G,,D,B,] z z2 z2 | [G,D]6 |!ped! [G,B,D]2 z2 z2 | [G,,B,,D,]2 z2 z2 | %192
[K:treble] [GBd]2 z2 z2!ped-up! | z6 |[K:bass] G,6 | F,6 |!ped! [D,G,]6!ped-up! | %197
!ped! [G,,,G,,]6!ped-up! | !fermata![G,,,G,,]6 |][K:Bb][M:2/4] G,,4 | C,4 | D,3 D, | G,G, E,2 | %203
 D,4 | C,2 ^C,2 | (D,D,, D,2) | [G,,D,]3 z |[K:treble] G4 | G2 E2 | D2 D2 | (G,C B,A,) | %211
[K:bass] G,F, D,B,, | D,F, G,C,/^C,/ | (D, D2) D | G,4 |[K:treble] F2 D>F | ^F2 [DG]D | %217
 [B,_D]2- [B,D][B,F] | F4 | F2 D>F | ^F2 D2 | [B,D]2[K:bass] CG, | [D,A,]3 !fermata!z | %223
 [F,,,F,,]2 z F,, | [F,,,F,,]2 z F,, | [F,,,F,,]2 z F,, | [F,,,F,,]2 z F,, | %227
 (6:4:6(F,,/E,/F,/A,/F,/E,/ (6:4:6F,,/E,/F,/A,/F,/E,/) | %228
 (6:4:6(F,,/E,/F,/A,/F,/E,/ (6:4:6F,,/E,/F,/A,/F,/E,/) | %229
 (6:4:6(F,,/E,/F,/A,/F,/E,/ (6:4:6F,,/E,/F,/A,/F,/E,/) | %230
 (6:4:6(F,,/E,/F,/A,/F,/E,/ (6:4:6F,,/E,/F,/A,/F,/E,/) | (!///-!B,,2 A,,2 | !///-!B,,2 A,,2) | %233
 (!///-!B,,,2 A,,,2 | !///-!B,,,2 A,,,2) | [B,,,B,,]4 | [C,,C,]2 [^C,,^C,]2 | [D,,D,]2 z2 | %238
 [D,^F,A,] z [D,G,B,] z | [D,^F,A,] z [D,G,B,] z | [D,^F,A,] z z2 | z4 || %242
[K:G][K:treble]!ped! z2 [GBd]2!ped-up! |!ped! z2 [GBd]2!ped-up! |!ped! z2 [Gcd]2!ped-up! | %245
!ped! z2 [GBd]2!ped-up! |!ped! z2 [GBd]2!ped-up! |!ped! z2 [GBd]2!ped-up! |!ped! z2 [Gc]2!ped-up! | %249
!ped! z2 [GB]2!ped-up! |!ped! z2 [Gcd]2!ped-up! |!ped! z2 [GBd]2!ped-up! |!ped! z2 [Gcd]2!ped-up! | %253
!ped! z2 [GBd]2!ped-up! |[K:bass] z .G,,,/.G,,,/ z .G,,,/.G,,,/ | z .G,,,/.G,,,/ z .G,,,/.G,,,/ | %256
 z .G,,,/.G,,,/ z .G,,,/.G,,,/ | z .G,,,/.G,,,/ z .G,,,/.G,,,/ | G,,, z [E,G,]2 | [D,G,]2 [C,E,]2 | %260
 [B,,D,]2 [A,,C,]2 | [G,,B,,]2 [G,,_B,,^C,E,]2 | [G,,=B,,] z _E,, z | D,, z ^C,, z | %264
 =C,, z B,,, z | _B,,, z A,,, z |!ped! [_A,,,_A,,]4- | [A,,,A,,]4- | [A,,,A,,]!ped-up! z z2 | z4 || %270
[K:Bb] [G,,,G,,]4 | [C,,C,]3 [^C,,^C,] | [D,,D,]2 .D,.D, | [G,,D,]4 | G,F,D,B,, | (D,F, G,F,) | %276
 =E,_E, D,D,, | [G,,D,]4 | (G,,>A,, !tenuto!B,,/!tenuto!B,,/!tenuto!B,,/!tenuto!B,,/) | %279
 (B,,>A,, !tenuto!G,,/!tenuto!G,,/!tenuto!G,,/!tenuto!G,,/) | %280
 (G,,>A,, !tenuto!B,,/!tenuto!B,,/!tenuto!B,,/!tenuto!B,,/) | %281
 (B,,>A,, !tenuto!G,,/!tenuto!G,,/!tenuto!G,,/!tenuto!G,,/) | G,,4- | %283
 ([G,,D,]/B,,/G,,/D,,/ B,,,2) | (B,,,>A,,, !tenuto!G,,,/!tenuto!G,,,/!tenuto!G,,,/!tenuto!G,,,/) | %285
!ped! !fermata!G,,,4!ped-up! |][K:G][M:3/4] .G,,2 z2 z2 | .A,,2 z2 z2 | .B,,2 z2 z2 | %289
 .[G,A,]2 z2 z2 | .[G,B,]2 z2 .[D,G,]2 | .[D,F,]2 z2 .[D,C]2 | .[G,B,]2 z2 .[B,D]2 | [G,B,]4 z2 | %294
!ped! (G,,D,B,D,B,D,!ped-up! |!ped! A,,F,CF,CF,)!ped-up! |!ped! (B,,G,B,G,B,G,)!ped-up! | %297
!ped! (C,G,A,G,A,G,)!ped-up! | ([G,B,]D,[G,B,]D,[G,B,]D, | [F,C]D,[F,C]D,[F,C]D,) | [G,B,]2 D2 D2 | %301
 D2 z2 z2 :: D,2 z2 D,2 | D,2 z2 D,2 | D,2 z2 D,2 | G,,2 z2 G,,2 | D,2 z2 D,2 | D,2 z2 D,2 | %308
 A,,2 z2 A,,2 | D,2 z2 D,2 | D,2 z2 D,2 | D,2 z2 D,2 | D,2 z2 D,2 | G,,2 z2 G,,2 | D,2 z2 D,2 | %315
 D,2 z2 D,2 | A,,2 z2 A,,2 | D,2 z2 z2 | z2 z E E2 | D6 | z2 z C C2 | B,6 | A,6 | G,6 | F,6 | %325
 .[G,,G,]2 z2 z2 | .A,,2 z2 z2 | .B,,2 z2 z2 | .[G,A,]2 z2 z2 | .[G,B,]2 z2 .[D,G,]2 | %330
 .[D,F,]2 z2 .[D,C]2 | .[G,B,]2 z2 .[B,D]2 | [G,B,]4 z2 | (G,,D,B,D,B,D, | A,,F,CF,CF,) | %335
 (B,,G,B,G,B,G,) | (C,G,A,G,A,G,) | ([G,B,]D,[G,B,]D,[G,B,]D, | [F,C]D,[F,C]D,[F,C]D,) | %339
 [G,B,]2 [G,B,D]2 [G,CD]2 | [G,B,D]2 z2 z2 ::[K:C][M:3/4] C,2 z2 G,,2 | C,2 z2 G,,2 | C,2 z2 C,2 | %344
 [F,A,]2 [C,G,]4 | C,2 z2 G,,2 | C,2 z2 G,,2 | .A,,2 .F,,2 .G,,2 | .C,2 .C,,2 z2 :: %349
 z2 (!>!!2!_E,2 !1!D,) z | z2 (!>!_E,2 D,) z | z2 (_A,2 G,2 | F,2 D,2 C,2) | B,, z (!>!_E,2 D,) z | %354
 B,, z (!>!_E,2 D,) z | B,, z z2 z2 |[K:treble] z2 (G2 ^F2) | G6- | G z (G2 ^F2 | G) z (G2 ^F2 | %360
 G) z (G2 ^G2 | A) z (A2 _A2 | G4) z2 |[K:bass] .C,2 z2 .G,2 | .C,2 z2 .G,2 | .C,2 z2 .C,2 | %366
 [F,A,]2 [C,G,]4 | C,2 z2 G,2 | C,2 z2 G,2 |"_D. C. Scherzo al Fine" [A,,A,]2 .[F,,F,]2 .[G,,G,]2 | %370
 [C,G,]4 z2 :|[K:G][M:2/4] .G,,.G, .G,,.G, | [G,,G,]2 z2 | G,, z (B,,C, | D,4) | .G,,.G, .G,,.G, | %376
 [G,,G,]2 z2 | G,, z B,, z | E, z z2 | .[G,,D,].G, .[G,,D,].G, | .[G,,D,].G, .G,,.G, | %381
 G,, (G,B,C) | D D,3 | .[G,,D,].G, .[G,,D,].G, | .[G,,D,].G, .G,,.G, | .G,,.G, .D,,.D, | %386
 .[G,,G,].D,.G,, z | B,, (!>!B,,2 A,, | G,,4) | .G,(G,_E,D,) | G,,4 | G,, z B,, z | C, z D, z | %393
 _E, z C, z | D, z G,, z | B,, (B,,2 A,, | G,,4) | .G,(G,_E,D,) | G,,4 | G,, z B,, z | C, z D, z | %401
 _E, z C, z | _E, z C, z | _E, z C, z | D, z D, z | .G,,.G, .G,,.G, | [G,,G,]3 z | G,, z (B,,C, | %408
 D,4) | !>![G,,G,]2 !>![B,,B,]2 | !>![E,,E,]2 !>![F,,F,]2 | .[G,,G,].[^C,,^C,] .[D,,D,].[D,,D,] | %412
 [G,,G,]2 G,, z | z4 |[K:treble] !>![B,B]2{/[A,A]} !>![A,A]2 | !>![G,G]2 !>![A,A]2 | %416
 !>![F,F]2 .[G,G].[E,E] |[K:bass] !>![B,,B,]2 !>![A,,A,]2 | !>![G,,G,]2 !>![F,,F,]2 | %419
 [E,,E,]2 [F,,F,]2 | B,,3 B,, | (B,,^D,F,B,) | B,,3 B,, | (B,,^D,F,B,) | (B,,2 E,,2 | B,,2 E,,2) | %426
 (B,,2 E,,2 | B,,2 E,,2) | B,,4 | C,4 | ^C,4 | D,2 ^D,2 | E, z E, z | E, z E, z | E, z A, z | %435
 E, z E, z | E, z E, z | G, z G, z | G, z G, z | B,, z z2 | (3(E,G,B, (3E,G,B, | %441
 (3E,G,B, (3E,G,B,) | (3(E,G,B, (3E,G,B,) | (3(G,B,D (3G,B,D) | (3(G,B,D (3G,B,D) | %445
 (3(B,,A,B, (3B,,A,B,) | (3(E,G,B, (3B,,A,B,) | (3(E,G,B,) E, z | E,G, B,/B,/B, | %449
 (B,/G,/).E, !>!E,2 | EA, B,E, | EA, B,E, | EA, B,E, | F, z B,, z | E,G, B,B, | B,G, E,2 | %456
 EA, B,E, | EA, B,E, | [A,E] z [^A,E] z | [B,^D] z B,,2 | .E,,.G,, .E,,.G,, | .E,,.G,, .E,,.G,, | %462
 .E,,.G,, .E,,.G,, | .G,,.B,, .G,,.B,, | .E,,.G,, .E,,.G,, | .G,,.B,, .G,,.B,, | %466
 .[G,,D,].B,, .[B,,^D,].B,, | .E,.G,, .[E,,G,,].[G,,B,,] | .[G,,=D,].B,, .[B,,^D,].B,, | %469
 .E,.G,, .[E,,G,,].[G,,B,,] | ([F,,,F,,]4 | [G,,,G,,]2 [A,,,A,,]2) | [^A,,,^A,,]4- | [A,,,A,,]4- | %474
 [A,,,A,,]4- | [A,,,A,,]4 ||[K:E] [B,,,B,,]4- | [B,,,B,,]4 | B,,4- | B,,4 | [B,,G,]4- | [B,,G,]4 | %482
 [B,,A,]4 | [E,G,]4 | z2 (G,,2 | C,4) | z2 (B,,2 | E,4) | z2 (G,,2 | C,4) | z2 (B,,2 | E,4) | %492
 E,4- | E,4 | [=C,E,]4- | [C,E,]4 | [B,,E,]4- | [B,,E,]4 | (B,,4 | E,,2) z2 |[K:treble] (BEAE | %501
 GEAE) | (BEAE | G4) | (BEAE | GEAE | BEAE | [EG]4) |[K:bass] E,2 [A,,E,]2 | [E,,B,,E,]4 | %510
 E,2 [A,,E,]2 | [E,,B,,E,]4 | [E,,E,]2 [A,,E,]2 | [E,,E,]2 [A,,E,]2 | [E,,E,]2 [A,,E,]2 | %515
 [E,,E,]2 [A,,E,]2 |!ped! [E,,B,,E,]4- | [E,,B,,E,]4- | [E,,B,,E,]4- | [E,,B,,E,]4!ped-up! || %520
[K:G] .E,,.E, .E,,.E, | .E,,.E, .E,,.E, | .=D,,.D, .D,,.D, | .D,,.D, .D,,.D, | .^C,,.^C, .C,,.C, | %525
 .^C,,.^C, .C,,.C, | .=C,,.=C, .=C,,.=C, | .B,,,.B,, .B,,,.B,, | [^A,,,^A,,] z z2 | ^A, z B, z | %530
 F, z F, z | F, z F, z | !>!B,2 !>!=A,2 | !>!G,2 F,E, | .B,,.B,,.^C,.^D, | !>!E,2 .F,.G, | %536
 !>!B,2 !>!A,2 | !>!G,2 .F,.E, | !>!B,,2 .^C,.^D, | !>!E,2 .F,.G, | !>!B,2 .^C.^D | !>!E2 .F.G | %542
 !>!G,,2 .A,,.B,, | !>!C,2 .D,._E, | !>!G,2 .A,.B, | !>!C2 .D._E | [_G,_A,C_E]4- | [G,A,CE]4 | %548
 (E,/^G,/E,/!1!G,/ !4!^C,/!1!E,/!2!C,/!1!E,/ | %549
 !4!^G,,/!1!^C,/!2!G,,/!1!C,/ !4!E,,/!1!G,,/!2!E,,/!1!G,,/) | (!//-!^F,,2 ^G,,2 | %551
 !//-!^F,,2 ^G,,2) | (E,,/^G,,/E,,/!2!G,,/ !1!^C,/!4!G,,/!2!C,/!5!=G,,/ | %553
 !2!^C,/!1!E,/!4!C,/!2!E,/ !1!^G,/!2!E,/G,/E,/) |!<(! (3F,,^G,,A,,!<)! B,,2 | %555
!<(! (3E,,F,,^G,,!<)! A,,2 |!<(! (3^D,,E,,F,,!<)! ^G,,2 |!<(! (3^C,,^D,,E,,!<)! F,,2 | %558
 [^G,,^G,] (!>!G,E,^D,) | .^G,(G,E,^D,) | ^G, z !>![^G,,G,]2 | !>![^G,,^G,]2 !>![G,,G,]2 | %562
 .[^G,,^G,] (G,E,^D,) | .^G,(G,E,^D,) | ^G, z !>![^G,,G,]2 | !>![^G,,^G,]2 !>![G,,G,]2 | %566
 [^G,,^G,] z z2 | [^G,,,^G,,] z"^dim." [^G,^CE][G,^B,^D] | [^G,,,^G,,] z [^G,^CE][G,^B,^D] | %569
!>(! [^G,^CE][G,^B,^D] [G,CE][G,B,D]!>)! | [E,^G,^C] z z2 |[K:treble] z4 | z4 | z4 | %574
 [^Ge]2 [FG^d]2 | .[E^G^c]([Ec][FA][E^G]) | ([E^G]2 [EG^c]2 | [=GA^d]2 [GAe]2) | [FA]2 [=GAe]2 | %579
 .[FA=d]([FAd][=GB][FA]) | [GB] B2 ^c | (dAFD) |[K:bass] z4 | =C4 | z4 | C4 | (A,2 C2 | A,2 C2) | %588
 [D,A,][D,C] [D,A,][D,C] | [D,A,][D,C] [D,A,C] z | .G,,.G, .G,,.G, | .G,,.G,.G,, z | %592
 [G,,G,]2 .[B,,B,].[C,C] | [D,D]4 | G,,G, B,,B, | [E,,E,][E,,E,] [F,,F,][F,,F,] | %596
 [G,,G,] z [D,,D,][D,,D,] | [G,,G,] B,,/A,,/ G,, z | B,, !>!B,,2 A,, | G,,4 | .G,(G,_E,D,) | G,,4 | %602
 G,, z B,, z | C, z D, z | _E, z C, z | D, z z2 | .F, !>!F,2 =E, | D,4 | .D(D_B,A,) | D,4 | %610
 (D,,2 F,,2 | G,,2 A,,2) | (_B,,2 C,2) | (D,F,A,D) | _E,4 | (D,F,A,D) | _E,4 | (D,4 | _E,4) | %619
 (=E,4 | =F,2 ^F,2) ||[K:Bb] G, z G,, z | G,, z G,, z | G,, z G,, z | G,, z G,, z | G,, z G,, z | %626
 B,, z B,, z | A,, z A,, z | D, z D, z | (3G,B,D (3G,B,D | (3G,B,D (3G,B,D | (3G,B,D (3G,B,D | %632
 (3B,DF (3B,DF | (3B,DF (3B,DF | (3D,CD (3D,CD | (3G,B,D (3D,CD | (3G,B,D G, z | G,B, D/D/D | %638
 (D/B,/).G, G,2 |[K:treble] GC DG, | GC DG, | GC DG, |[K:bass] A, z D, z | G,B, DD | DB, G,2 | %645
 GC DG, | GC DG, | [CG] z [^CG] z | [D^F] z z2 | !>!G,,.B,, !>!G,,.B,, | !>!G,,.B,, !>!G,,.B,, | %651
 !>!G,,.B,, !>!G,,.B,, | !>!B,,.D, !>!B,,.D, | !>!G,,.B,, !>!G,,.B,, | !>!B,,.D, !>!B,,.D, | %655
 F,D, ^F, z | [G,,G,]D, [G,,B,,][B,,D,] | =F, z ^F, z | [G,,G,]B,, [G,,B,,][B,,D,] | ([A,,,A,,]4 | %660
 [B,,,B,,]2 [C,,C,]2) |!ped! [^C,,^C,]4- | [C,,C,]4- | [C,,C,]4- | [C,,C,]4!ped-up! || %665
[K:G] [D,,D,]4- | [D,,D,]4 | [D,,D,]4- | [D,,D,]4 | [D,B,D]4- | [D,B,D]4 | [D,B,D]2 [D,A,C]2 | %672
 [G,B,]4 | z2 (B,,2 | E,4) | z2 (D,2 | G,4) | z2 (B,,2 | E,4) | z2 (D,2 | G,4) | [G,B,]4- | %682
 [G,B,]4 | [_E,_B,]4- | [E,B,]4 | [D,=B,]4 | [D,D]4 | D,4 | (G,B,DG) |[K:treble] (dGcG | BGcG | %691
 dGcG | BGBG) | (dGcG | BGcG | dGcG | BGBG) |[K:bass] G,2 [C,G,]2 | [G,,D,G,]4 | [G,,G,]2 [C,G,]2 | %700
 [G,,D,G,]4 | [G,,G,]2 [C,G,]2 | [G,,G,]2 [C,G,]2 | [G,,G,]2 [C,G,]2 | [G,,G,]2 [C,G,]2 | %705
 [G,,G,]4- | [G,,G,]4- | [G,,G,]4- | [G,,G,]4 | .G,,.G, .G,,.G, | .G,,.G, .G,,.G, | %711
 .[=F,,G,,].=F, .[F,,G,,].F, | .[=F,,G,,].=F, .[F,,G,,].F, | .[E,,^G,,].E, .[E,,G,,].E, | %714
 .[E,,^G,,].E, .[E,,G,,].E, | .[D,,E,,].D, .[D,,E,,].D, | .[D,,E,,].D, .[D,,E,,].D, | [C,,C,]2 z2 | %718
 [E,E][E,E] [D,D][C,C] | [C,C][C,C] [B,,B,][A,,A,] | [A,,A,][A,,A,] [G,,G,][F,,F,] | %721
 [B,,B,] z [C,C] z | D, z D, z | .G,,.B,, .G,,.B,, | .G,,.B,, .G,,.B,, | .=F,,.G,, .F,,.G,, | %726
 .=F,,.G,, .F,,.G,, | .E,,.^G,, .E,,.G,, | .E,,.^G,, .E,,.G,, | .D,,.E,, .D,,.E,, | %730
 .D,,.E,, .D,,.E,, | [C,,C,] z z2 | [E,E]2 [D,D][C,C] | [C,C]2 [B,,B,][A,,A,] | %734
 [A,,A,]2 [G,,G,][F,,F,] | [B,,B,] z [C,C] z | !//-!D,2 D2 | [B,,B,] z [C,C] z | !//-!D,2 D2 | %739
 !//-!D,2 D2 | !//-!D,2 D2 | !//-!D,2 D2 | !//-!D,2 D2 | !//-!G,,2 G,2 | !//-!G,,2 G,2 | %745
 !//-!G,,2 G,2 | !//-!G,,2 G,2 | [G,,B,,D,G,]2 z2 | [G,,B,,D,G,]2 z2 | !fermata![G,,,G,,]4 |] %750
V:4
 x6 | x6 | x6 | x6 | x6 | x6 | C6 | B,4 x2 | x6 | x6 | x6 | x6 | x6 | x6 | x6 | x6 | x6 | x6 | x6 | %19
 x6 | A2 !>!d2 x2 | A2 !>!d2 x2 | x2 B2 x2 | x6 | x6 | x6 | x6 | x6 | x6 | x6 | x6 | x6 | x6 | x6 | %34
 x6 | x6 | x6 | x6 | x6 | x6 | x6 | x6 | x6 | x6 | x6 | x6 | x6 | x6 | x6 | x6 | x6 | x2 [EG]4 | %52
 x2 [EG]4 | [EG]4 [EG]2 | x6 | x6 | x6 | x6 | x6 | x6 | x6 | x6 | x6 |1 x6 | x6 | x6 | x6 :|2 x6 | %68
 x6 || x6 | x6 | x6 | x6 | x6 | x6 | x6 | x6 | x6 | x6 | x6 | x6 | x6 | C z z2 z2 | x6 | x6 | x6 | %86
 x6 | x6 | x6 | =G6 | x6 | G6 | x6 | =E6 | x6 | =E6 | x6 | [^F^A]6 | x6 | x6 | x6 | x6 | x6 | x6 | %104
 x6 | x6 | x6 | x6 | x6 | x6 | x6 | x6 | x6 | x6 | x6 | x6 | x6 | x6 | x6 | x6 | x6 | C6 | x6 | %123
 x6 | x6 | x6 | x6 | x6 | x6 | x6 | x6 | x6 | x6 | x6 | x6 | x6 | x6 | x6 | x6 | x6 | x6 | x4 =F2 | %142
 x6 | x6 | x6 | x6 | x6 | x6 | x6 | x6 | x6 | x6 | x6 | x6 | x6 | x6 | x6 | x6 | x6 | x6 | x6 | %161
 x6 | x2 [G,_B,]4 | x2 [G,_B,]4 | x6 | x6 | x6 | x6 | x6 | x6 | x6 | x6 | x6 | x6 | G2 G2 G2 | x6 | %176
 x6 | x6 | x6 | x6 | x6 | x6 | x6 | x6 | x6 | x6 | x6 | x6 | x6 | [Fc]6 | x6 | x6 | %192
!8va(! x2!8va)! x4 | x6 | x6 | x6 | x6 |[K:bass] x6 | x6 |][K:Bb][M:2/4][K:treble] x4 | x4 | %201
 x3 D/C/ | x4 | x4 | [G,B,]4 | x4 | x4 | x4 | x4 | x4 | B G3 | x4 | ^F=F/E/ (D!>(!E)!>)! | x4 | %214
 x4 | x4 | A2 x2 | _G2 x2 | BA/G/ A2 | x4 | A2 G2 | =F2 G2 | x4 |[K:bass] x4 | x4 | x4 | x4 | %227
[K:treble] x4 | x4 | x4 | x4 | x4 | x4 | x4 |[K:bass] x4 | x4 | x2 =E,2 | x4 | x2[K:treble] x2 | %239
 x4 | x4 | x4 ||[K:G]!8va(! x4 | x4 | x4 | x4 | x4 | x4 | x4 | x4 | x4 | x4 | x4 | x4!8va)! | x4 | %255
 x4 | x4 | x4 | x4 | x4 | x4 | x4 |[K:bass] x4 | x2 G, x | F, z x2 | E,=F, ^C, x | x4 | x4 | x4 | %269
 x4 ||[K:Bb] x4 | x4 | x2[K:treble] x2 | x4 | x4 | x4 | x4 | [B,D]4 | x4 | x4 | x4 | x4 | x4 | x4 | %284
 x4 | x4 |][K:G][M:3/4] x6 | x6 | x6 | x6 | x6 | x6 | x6 | x6 | x6 | x6 | x6 | x6 | x6 | x6 | x6 | %301
 x6 :: x6 | x6 | x6 | x6 | x6 | x6 | x6 | x6 | x6 | x6 | x6 | x6 | x6 | x6 | x6 | x6 | x6 | x6 | %320
 x6 | x6 | x6 | x6 | (A,2 B,2 C2) | x6 | x6 | x6 | x6 | x6 | x6 | x6 | x6 | x6 | x6 | x6 | x6 | %337
 x6 | x6 | x6 | x6 ::[K:C][M:3/4] x6 | x6 | x6 | x6 | x6 | x6 | (EcFcDF) | x6 :: x6 | x6 | x6 | %352
 x6 | x6 | x6 | x6 | x6 | x6 | x6 | x6 | x6 | x6 | x6 | x6 | x6 | x6 | x6 | x6 | x6 | x6 | x6 :| %371
[K:G][M:2/4] (DE =F^F) | x4 | x4 | x4 | (DE =F^F) | x4 | x4 | x4 | x4 | x4 | x G3- | %382
 (G!>(!FEF)!>)! | x4 | x4 | x4 | x4 | x4 | x4 | x4 | x4 | x4 | x4 | x4 | x4 | x4 | x4 | x4 | x4 | %399
 x4 | x4 | x4 | x4 | x4 | x4 | =B,2 [CD]2 | x4 | x4 | x4 | [DG]2 [^DA]2 | x4 | x4 | x4 | x4 | x4 | %415
 x4 | x4 | x4 | x4 | x4 | x4 | x4 | x4 | x4 | x4 | x4 | x4 | x4 | x4 | x4 | x4 | x4 | x4 | x4 | %434
 x4 | x4 | x4 | x4 | x4 | x4 | x4 | x4 | x4 | x4 |!8va(! x4 | x4 | x!8va)! x3 | x4 | x4 | x4 | x4 | %451
 x4 | x4 | x4 | x4 | x4 | x4 | x4 | x4 | x4 | x4 | x4 | x4 | x4 | x4 | x4 | x4 | x4 | x4 | x4 | %470
 [CE]4 | x4 | x4 | x4 | x4 | x4 ||[K:E] x4 | x4 | x4 | x4 | E4- | E4 | x4 | E4 | x4 | x4 | x4 | %487
 x4 | x4 | x4 | x4 | x4 | x4 | x4 | x4 | x4 | x4 | x4 | x4 | x4 | x4 | x4 | x2 c2 | B4 | x4 | x4 | %506
 x2 c2 | B4 | B,2 C2 | x4 | B,2 C2 | x4 | B,2 C2 | B,2 C2 | B,2 C2 | B,2 C2 | x4 | x4 | x4 | x4 || %520
[K:G] x4 | x4 | x4 | x4 | x4 | x4 | x4 | x4 | x4 | x4 | x4 | x4 | x4 | x4 | x4 | x4 | x4 | x4 | %538
 x4 | x4 | x4 | x4 | x4 | x4 | x4 | x4 | x4 | x4 | x4 | x4 | x4 | x4 | x4 | x4 | x4 | x4 | x4 | %557
 x4 | x4 | x4 | x4 | x4 | x4 | x4 | x4 | x4 | x4 | x4 | x4 | x4 | x2 ^GG | E2 E2 | E ^G2 E | x4 | %574
 x4 | x4 | x4 | x4 | x4 | x4 | x4 | x4 | x4 | x4 | x4 | x4 | x4 | x4 | x4 | x4 | DE=F^F | x4 | x4 | %593
 GFEF | x4 | x4 | x4 | x4 | x4 | x4 | x4 | x4 | x4 | x4 | x4 | x4 | x4 | x4 | x4 | x4 | x4 | x4 | %612
 x4 | x4 | x4 | x4 | x4 | x4 | x4 | x4 | x4 ||[K:Bb] x4 | x4 | x4 | x4 | x4 | x4 | x4 | x4 | %629
!8va(! x4 | x4 | x4 | x4 | x4 | x4 | x4 | x3!8va)! x | x4 | x4 | x4 | x4 | x4 | x4 | x4 | x4 | x4 | %646
 x4 | x4 | x4 | x4 | x4 | x4 | x4 | x4 | x4 | x4 | x4 | x4 | x4 | [EG]4 | x4 | x4 | x4 | x4 | x4 || %665
[K:G] x4 | x4 | x4 | x4 | G4- | G4 | G2 EF | x4 | x4 | x4 | x4 | x4 | x4 | x4 | x4 | x4 | x4 | x4 | %683
 x4 | x4 | x4 | x4 | F4 | x4 | x4 | x4 | x2 e2 | d4 | x4 | x4 | x2 e2 | d4 | D2 E2 | x4 | D2 E2 | %700
 x4 | D2 E2 | D2 E2 | D2 E2 | D2 E2 | x4 | x4 | x4 | x4 | x4 | x4 | x4 | x4 | x4 | [^Gd^g]ddd | %715
 x4 | x4 | x4 | x4 | x4 | x4 | x4 | x4 | x4 | x4 | x4 | x4 | x4 | x4 | x4 | x4 | x4 | x4 | x4 | %734
 x4 | x4 | x4 | x4 | x4 | x4 | x4 | x4 | x4 | x4 | x4 | x4 | x4 | x4 | x4 | x4 |] %750
V:5
 x6 | x6 | x6 | x6 | x6 | x6 | x6 | x6 | x6 | x6 | x6 | x6 | x6 | x6 | x6 | x6 | D,6 | D,6 | D,6 | %19
 D,6 | D,6 | D,6 | D,6 | D,6 | x6 | x6 | x6 | x6 | x6 | x6 | x4 C,2 | B,,4 =C,2 | B,,4 =C,2 | %33
 B,,4 =C,2 | B,,2 x4 | x6 | x6 | x6 | x6 | x6 | x6 | x6 | x6 | x6 | x6 | x6 | x6 | x6 | x6 | x6 | %50
 x6 | E,, x [E,G,]4 | E,, x [E,G,]4 | [E,G,]4 x2 | x6 | x6 | x6 | x4 [C,E,G,]2 | %58
 [B,,E,G,]2 [B,,E,G,]2 [B,,F,]2 | x6 | x6 | x6 | x6 |1[K:treble] x6 | x6 | x6 |[K:bass] x6 :|2 %67
 z2 E,2 E,2 | =F,6 || x6 | x6 | x6 | x6 | x6 | x6 | x6 | x6 | x6 | x6 | x6 | =F,6- | F,6 | =F, x5 | %83
 x6 | x6 | x6 | x6 | x6 | x6 | x6 | x6 | x6 | x6 | x6 | x6 | x6 | x6 | x6 | x6 | x6 | x6 | x6 | %102
 x6 | x6 | x6 | x6 | x6 | x6 | x6 | x6 | x6 | x6 | x6 | x6 | x6 | x6 | x6 | x6 | x6 | x6 | x6 | %121
 x6 | x6 | x6 | x6 | x6 | x6 |[K:treble] x6 | x6 | x6 | x6 |[K:bass] =F,6 | =F,6 | =F,6 | =F,6 | %135
 =F,6 | =F,6 | =F,6 | =F,6 | x6 | x6 | x6 | x6 | x6 | x6 | x6 | D,4 _E,2 | D,4 _E,2 | D,4 _E,2 | %149
 x6 | x6 | x6 | x6 | x6 | x6 | x6 | x6 | x6 | x6 | x6 | x6 | x6 | x2 [G,,_B,,]4 | x2 [G,,_B,,]4 | %164
 [G,,_B,,]2- [G,,B,,] x3 | x6 | x6 | x6 | x6 | x6 | x6 | x6 | x6 |[K:treble] x6 |[K:bass] x6 | x6 | %176
 x6 | x6 | x6 | x6 | x6 | x6 | x6 | x6 | [D,,C,]6 | [D,,C,]6 | [G,,D,]6 | [G,,D,]6 | x6 | x6 | x6 | %191
 x6 |[K:treble] x6 | x6 |[K:bass] E,6 | B,,6 | G,,6 | x6 | x6 |][K:Bb][M:2/4] x4 | x4 | x4 | x4 | %203
 x4 | x4 | x4 | x4 |[K:treble] x4 | C4 | x4 | x4 |[K:bass] x4 | x4 | x4 | x4 |[K:treble] B,4- | %216
 B,4- | x4 | x4 | B,4 | B,4 | x2[K:bass] E,2 | x4 | x4 | x4 | x4 | x4 | x4 | x4 | x4 | x4 | x4 | %232
 x4 | x4 | x4 | x4 | x4 | x4 | x4 | x4 | x4 | x4 ||[K:G][K:treble] [G,D]4 | [G,D]4 | [G,D]4 | %245
 [G,D]4 | [G,D]4 | [G,D]4 | [G,D]4 | [G,D]4 | [G,D]4 | [G,D]4 | [G,D]4 | [G,D]4 |[K:bass] x4 | x4 | %256
 x4 | x4 | x4 | x4 | x4 | x4 | x4 | x4 | x4 | x4 | x4 | x4 | x4 | x4 ||[K:Bb] x4 | x4 | x4 | x4 | %274
 x4 | x4 | x4 | x4 | x4 | x4 | x4 | x4 | x4 | x4 | x4 | x4 |][K:G][M:3/4] x6 | x6 | x6 | .C,2 x4 | %290
 .D,2 x4 | x6 | x6 | x6 | x6 | x6 | x6 | x6 | x6 | x6 | x2 [G,B,]2 [G,C]2 | [G,B,]2 x4 :: x6 | x6 | %304
 x6 | x6 | x6 | x6 | x6 | x6 | x6 | x6 | x6 | x6 | x6 | x6 | x6 | x6 | x6 | x6 | x6 | x6 | x6 | %323
 x6 | x6 | x6 | x6 | x6 | .C,2 x4 | .D,2 x4 | x6 | x6 | x6 | x6 | x6 | x6 | x6 | x6 | x6 | x6 | %340
 x6 ::[K:C][M:3/4] x6 | x6 | x6 | x6 | x6 | x6 | x6 | x6 :: G,,6 | G,,6 | G,,6- | G,,6 | G,,6 | %354
 G,,6 | G,, x5 |[K:treble] x6 | x6 | x6 | x6 | x6 | x6 | x6 |[K:bass] x6 | x6 | x6 | x6 | x6 | x6 | %369
 x6 | x6 :|[K:G][M:2/4] x4 | x4 | x4 | x4 | x4 | x4 | x4 | x4 | x4 | x4 | x4 | x4 | x4 | x4 | x4 | %386
 x4 | x4 | x4 | x4 | x4 | x4 | x4 | x4 | x4 | x4 | x4 | x4 | x4 | x4 | x4 | x4 | x4 | x4 | x4 | %405
 x4 | x4 | x4 | x4 | x4 | x4 | x4 | x4 | x4 |[K:treble] x4 | x4 | x4 |[K:bass] x4 | x4 | x4 | x4 | %421
 x4 | x4 | x4 | x4 | x4 | x4 | x4 | x4 | x4 | x4 | x4 | x4 | x4 | x4 | x4 | x4 | x4 | x4 | x4 | %440
 x4 | x4 | x4 | x4 | x4 | x4 | x4 | x4 | x4 | x4 | x4 | x4 | x4 | x4 | x4 | x4 | x4 | x4 | x4 | %459
 x4 | x4 | x4 | x4 | x4 | x4 | x4 | x4 | E,, z x2 | x4 | E,, z x2 | x4 | x4 | x4 | x4 | x4 | x4 || %476
[K:E] x4 | x4 | x4 | x4 | x4 | x4 | x4 | x4 | C,,4- | C,,4 | E,,4- | E,,4 | C,,4- | C,,4 | E,,4- | %491
 E,,4 | x4 | x4 | x4 | x4 | x4 | x4 | x4 | x4 |[K:treble] x4 | x4 | x4 | x4 | x4 | x4 | x4 | x4 | %508
[K:bass] x4 | x4 | x4 | x4 | x4 | x4 | x4 | x4 | x4 | x4 | x4 | x4 ||[K:G] x4 | x4 | x4 | x4 | x4 | %525
 x4 | x4 | x4 | x4 | x4 | x4 | x4 | B,, z z2 | z4 | B,,4- | B,,4 | B,,4- | B,,4 | B,,4- | B,,4 | %540
 x4 | x4 | G,,4- | G,,4 | z4 | z4 | x4 | x4 | x4 | x4 | x4 | x4 | x4 | x4 | x4 | x4 | x4 | x4 | %558
 x4 | x4 | x4 | x4 | x4 | x4 | x4 | x4 | x4 | x2 z2 | x2 z2 | [^G,,,^G,,] z [G,,,G,,] z | %570
 [^C,,^C,] x3 |[K:treble] x4 | x4 | x4 | x4 | x4 | x4 | x4 | x4 | x4 | x4 | x4 |[K:bass] D,4- | %583
 D,4 | D,4- | D,4 | D,4- | D,4 | x4 | x4 | x4 | x4 | x4 | x4 | x4 | x4 | x4 | x4 | x4 | x4 | x4 | %601
 x4 | x4 | x4 | x4 | x4 | x4 | x4 | x4 | x4 | x4 | x4 | x4 | x4 | x4 | x4 | x4 | x4 | x4 | x4 | %620
 x4 ||[K:Bb] x4 | x4 | x4 | x4 | x4 | x4 | x4 | x4 | x4 | x4 | x4 | x4 | x4 | x4 | x4 | x4 | x4 | %638
 x4 |[K:treble] x4 | x4 | x4 |[K:bass] x4 | x4 | x4 | x4 | x4 | x4 | x4 | x4 | x4 | x4 | x4 | x4 | %654
 x4 | B,, z D,D, | x4 | B,,D, D,D, | x4 | x4 | x4 | x4 | x4 | x4 | x4 ||[K:G] x4 | x4 | x4 | x4 | %669
 x4 | x4 | x4 | x4 | E,,4- | E,,4 | G,,4- | G,,4 | E,,4- | E,,4 | G,,4- | G,,4 | x4 | x4 | x4 | %684
 x4 | x4 | x4 | x4 | x4 |[K:treble] x4 | x4 | x4 | x4 | x4 | x4 | x4 | x4 |[K:bass] x4 | x4 | x4 | %700
 x4 | x4 | x4 | x4 | x4 | x4 | x4 | x4 | x4 | x4 | x4 | x4 | x4 | x4 | x4 | x4 | x4 | x4 | x4 | %719
 x4 | x4 | x4 | x4 | x4 | x4 | x4 | x4 | x4 | x4 | x4 | x4 | x4 | x4 | x4 | x4 | x4 | x4 | x4 | %738
 x4 | x4 | x4 | x4 | x4 | x4 | x4 | x4 | x4 | x4 | x4 | x4 |] %750
V:6
 x6 | x6 | x6 | x6 | x6 | x6 | x6 | x6 | x6 | x6 | x6 | x6 | x6 | x6 | x6 | x6 | x6 | x6 | x6 | %19
 x6 | x6 | x6 | x6 | x6 | x6 | x6 | x6 | x6 | x6 | x6 | x6 | x6 | x6 | x6 | x6 | x6 | x6 | x6 | %38
 x6 | x6 | x6 | x6 | x6 | x6 | x6 | x6 | x6 | x6 | x6 | x6 | x6 | x6 | x6 | x6 | x6 | x6 | x6 | %57
 x6 | x6 | x6 | x6 | x6 | x6 |1[K:treble] x6 | x6 | x6 |[K:bass] x6 :|2 x6 | x6 || x6 | x6 | x6 | %72
 x6 | x6 | x6 | x6 | x6 | x6 | x6 | x6 | x6 | x6 | x6 | x6 | x6 | x6 | x6 | x6 | x6 | x6 | x6 | %91
 x6 | x6 | x6 | x6 | x6 | x6 | x6 | x6 | x6 | x6 | x6 | x6 | x6 | x6 | x6 | x6 | x6 | x6 | x6 | %110
 x6 | x6 | x6 | x6 | x6 | x6 | x6 | x6 | x6 | x6 | x6 | x6 | x6 | x6 | x6 | x6 | x6 | %127
[K:treble] x6 | x6 | x6 | x6 |[K:bass] x6 | x6 | x6 | x6 | x6 | x6 | x6 | x6 | x6 | x6 | x6 | x6 | %143
 x6 | x6 | x6 | x6 | x6 | x6 | x6 | x6 | x6 | x6 | x6 | x6 | x6 | x6 | x6 | x6 | x6 | x6 | x6 | %162
 x6 | x6 | x6 | x6 | x6 | x6 | x6 | x6 | x6 | x6 | x6 |[K:treble] x6 |[K:bass] x6 | x6 | x6 | x6 | %178
 x6 | x6 | x6 | x6 | x6 | x6 | E,6 | x6 | x6 | x6 | x6 | x6 | x6 | x6 |[K:treble] x6 | x6 | %194
[K:bass] x6 | x6 | x6 | x6 | x6 |][K:Bb][M:2/4] x4 | x4 | x4 | x4 | x4 | x4 | x4 | x4 | %207
[K:treble] x4 | x4 | x4 | x4 |[K:bass] x4 | x4 | x4 | x4 |[K:treble] x4 | x4 | x4 | x4 | x4 | x4 | %221
 x2[K:bass] x2 | x4 | x4 | x4 | x4 | x4 | x4 | x4 | x4 | x4 | x4 | x4 | x4 | x4 | x4 | x4 | x4 | %238
 x4 | x4 | x4 | x4 ||[K:G][K:treble] x4 | x4 | x4 | x4 | x4 | x4 | x4 | x4 | x4 | x4 | x4 | x4 | %254
[K:bass] x4 | x4 | x4 | x4 | x4 | x4 | x4 | x4 | x4 | x4 | x4 | x4 | x4 | x4 | x4 | x4 || %270
[K:Bb] x4 | x4 | x4 | x4 | x4 | x4 | x4 | x4 | x4 | x4 | x4 | x4 | x4 | x4 | x4 | x4 |] %286
[K:G][M:3/4] x6 | x6 | x6 | x6 | x6 | x6 | x6 | x6 | x6 | x6 | x6 | x6 | x6 | x6 | x6 | x6 :: x6 | %303
 x6 | x6 | x6 | x6 | x6 | x6 | x6 | x6 | x6 | x6 | x6 | x6 | x6 | x6 | x6 | x6 | x6 | x6 | x6 | %322
 x6 | x6 | x6 | x6 | x6 | x6 | x6 | x6 | x6 | x6 | x6 | x6 | x6 | x6 | x6 | x6 | x6 | x6 | x6 :: %341
[K:C][M:3/4] x6 | x6 | x6 | x6 | x6 | x6 | x6 | x6 :: x6 | x6 | x6 | x6 | x6 | x6 | x6 | %356
[K:treble] x6 | x6 | x6 | x6 | x6 | x6 | x6 |[K:bass] x6 | x6 | x6 | x6 | x6 | x6 | x6 | x6 :| %371
[K:G][M:2/4] x4 | x4 | x4 | x4 | x4 | x4 | x4 | x4 | x4 | x4 | x4 | x4 | x4 | x4 | x4 | x4 | x4 | %388
 x4 | x4 | x4 | x4 | x4 | x4 | x4 | x4 | x4 | x4 | x4 | x4 | x4 | x4 | x4 | x4 | x4 | x4 | x4 | %407
 x4 | x4 | x4 | x4 | x4 | x4 | x4 |[K:treble] x4 | x4 | x4 |[K:bass] x4 | x4 | x4 | x4 | x4 | x4 | %423
 x4 | x4 | x4 | x4 | x4 | x4 | x4 | x4 | x4 | x4 | x4 | x4 | x4 | x4 | x4 | x4 | x4 | x4 | x4 | %442
 x4 | x4 | x4 | x4 | x4 | x4 | x4 | x4 | x4 | x4 | x4 | x4 | x4 | x4 | x4 | x4 | x4 | x4 | x4 | %461
 x4 | x4 | x4 | x4 | x4 | x4 | x4 | x4 | x4 | x4 | x4 | x4 | x4 | x4 | x4 ||[K:E] x4 | x4 | x4 | %479
 x4 | x4 | x4 | x4 | x4 | x4 | x4 | x4 | x4 | x4 | x4 | x4 | x4 | x4 | x4 | x4 | x4 | x4 | x4 | %498
 x4 | x4 |[K:treble] x4 | x4 | x4 | x4 | x4 | x4 | x4 | x4 |[K:bass] x4 | x4 | x4 | x4 | x4 | x4 | %514
 x4 | x4 | x4 | x4 | x4 | x4 ||[K:G] x4 | x4 | x4 | x4 | x4 | x4 | x4 | x4 | x4 | x4 | x4 | x4 | %532
 x4 | x4 | x4 | x4 | x4 | x4 | x4 | x4 | x4 | x4 | x4 | x4 | x4 | x4 | x4 | x4 | x4 | x4 | x4 | %551
 x4 | x4 | x4 | x4 | x4 | x4 | x4 | x4 | x4 | x4 | x4 | x4 | x4 | x4 | x4 | x4 | x4 | x4 | x4 | %570
 x4 |[K:treble] x4 | x4 | x4 | x4 | x4 | x4 | x4 | x4 | x4 | x4 | x4 |[K:bass] x4 | x4 | x4 | x4 | %586
 x4 | x4 | x4 | x4 | x4 | x4 | x4 | x4 | x4 | x4 | x4 | x4 | x4 | x4 | x4 | x4 | x4 | x4 | x4 | %605
 x4 | x4 | x4 | x4 | x4 | x4 | x4 | x4 | x4 | x4 | x4 | x4 | x4 | x4 | x4 | x4 ||[K:Bb] x4 | x4 | %623
 x4 | x4 | x4 | x4 | x4 | x4 | x4 | x4 | x4 | x4 | x4 | x4 | x4 | x4 | x4 | x4 |[K:treble] x4 | %640
 x4 | x4 |[K:bass] x4 | x4 | x4 | x4 | x4 | x4 | x4 | x4 | x4 | x4 | x4 | x4 | x4 | x4 | x4 | x4 | %658
 x4 | x4 | x4 | x4 | x4 | x4 | x4 ||[K:G] x4 | x4 | x4 | x4 | x4 | x4 | x4 | x4 | x4 | x4 | x4 | %676
 x4 | x4 | x4 | x4 | x4 | x4 | x4 | x4 | x4 | x4 | x4 | x4 | x4 |[K:treble] x4 | x4 | x4 | x4 | %693
 x4 | x4 | x4 | x4 |[K:bass] x4 | x4 | x4 | x4 | x4 | x4 | x4 | x4 | x4 | x4 | x4 | x4 | x4 | x4 | %711
 x4 | x4 | x4 | x4 | x4 | x4 | x4 | x4 | x4 | x4 | x4 | x4 | x4 | x4 | x4 | x4 | x4 | x4 | x4 | %730
 x4 | x4 | x4 | x4 | x4 | x4 | x4 | x4 | x4 | x4 | x4 | x4 | x4 | x4 | x4 | x4 | x4 | x4 | x4 | %749
 x4 |] %750
V:7
 x6 | x6 | x6 | x6 | x6 | x6 | x6 | x6 | x6 | x6 | x6 | x6 | x6 | x6 | x6 | x6 | x6 | x6 | x6 | %19
 x6 | x6 | x6 | x6 | x6 | x6 | x6 | x6 | x6 | x6 | x6 | x6 | x6 | x6 | x6 | x6 | x6 | x6 | x6 | %38
 x6 | x6 | x6 | x6 | x6 | x6 | x6 | x6 | x6 | x6 | x6 | x6 | x6 | x6 | x6 | x6 | x6 | x6 | x6 | %57
 x6 | x6 | x6 | x6 | x6 | x6 |1[K:treble] x6 | x6 | x6 |[K:bass] x6 :|2 x6 | x6 || x6 | x6 | x6 | %72
 x6 | x6 | x6 | x6 | x6 | x6 | x6 | x6 | x6 | x6 | x6 | x6 | x6 | x6 | x6 | x6 | x6 | x6 | x6 | %91
 x6 | x6 | x6 | x6 | x6 | x6 | x6 | x6 | x6 | x6 | x6 | x6 | x6 | x6 | x6 | x6 | x6 | x6 | x6 | %110
 x6 | x6 | x6 | x6 | x6 | x6 | x6 | x6 | x6 | x6 | x6 | x6 | x6 | x6 | x6 | x6 | x6 | %127
[K:treble] x6 | x6 | x6 | x6 |[K:bass] x6 | x6 | x6 | x6 | x6 | x6 | x6 | x6 | x6 | x6 | x6 | x6 | %143
 x6 | x6 | x6 | x6 | x6 | x6 | x6 | x6 | x6 | x6 | x6 | x6 | x6 | x6 | x6 | x6 | x6 | x6 | x6 | %162
 x6 | x6 | x6 | x6 | x6 | x6 | x6 | x6 | x6 | x6 | x6 |[K:treble] x6 |[K:bass] x6 | x6 | x6 | x6 | %178
 x6 | x6 | x6 | x6 | x6 | x6 | x6 | F,6 | x6 | x6 | x6 | x6 | x6 | x6 |[K:treble] x6 | x6 | %194
[K:bass] x6 | x6 | x6 | x6 | x6 |][K:Bb][M:2/4] x4 | x4 | x4 | x4 | x4 | x4 | x4 | x4 | %207
[K:treble] x4 | x4 | x4 | x4 |[K:bass] x4 | x4 | x4 | x4 |[K:treble] x4 | x4 | x4 | x4 | x4 | x4 | %221
 x2[K:bass] x2 | x4 | x4 | x4 | x4 | x4 | x4 | x4 | x4 | x4 | x4 | x4 | x4 | x4 | x4 | x4 | x4 | %238
 x4 | x4 | x4 | x4 ||[K:G][K:treble] x4 | x4 | x4 | x4 | x4 | x4 | x4 | x4 | x4 | x4 | x4 | x4 | %254
[K:bass] x4 | x4 | x4 | x4 | x4 | x4 | x4 | x4 | x4 | x4 | x4 | x4 | x4 | x4 | x4 | x4 || %270
[K:Bb] x4 | x4 | x4 | x4 | x4 | x4 | x4 | x4 | x4 | x4 | x4 | x4 | x4 | x4 | x4 | x4 |] %286
[K:G][M:3/4] x6 | x6 | x6 | x6 | x6 | x6 | x6 | x6 | x6 | x6 | x6 | x6 | x6 | x6 | x6 | x6 :: x6 | %303
 x6 | x6 | x6 | x6 | x6 | x6 | x6 | x6 | x6 | x6 | x6 | x6 | x6 | x6 | x6 | x6 | x6 | x6 | x6 | %322
 x6 | x6 | x6 | x6 | x6 | x6 | x6 | x6 | x6 | x6 | x6 | x6 | x6 | x6 | x6 | x6 | x6 | x6 | x6 :: %341
[K:C][M:3/4] x6 | x6 | x6 | x6 | x6 | x6 | x6 | x6 :: x6 | x6 | x6 | x6 | x6 | x6 | x6 | %356
[K:treble] x6 | x6 | x6 | x6 | x6 | x6 | x6 |[K:bass] x6 | x6 | x6 | x6 | x6 | x6 | x6 | x6 :| %371
[K:G][M:2/4] x4 | x4 | x4 | x4 | x4 | x4 | x4 | x4 | x4 | x4 | x4 | x4 | x4 | x4 | x4 | x4 | x4 | %388
 x4 | x4 | x4 | x4 | x4 | x4 | x4 | x4 | x4 | x4 | x4 | x4 | x4 | x4 | x4 | x4 | x4 | x4 | x4 | %407
 x4 | x4 | x4 | x4 | x4 | x4 | x4 |[K:treble] x4 | x4 | x4 |[K:bass] x4 | x4 | x4 | x4 | x4 | x4 | %423
 x4 | x4 | x4 | x4 | x4 | x4 | x4 | x4 | x4 | x4 | x4 | x4 | x4 | x4 | x4 | x4 | x4 | x4 | x4 | %442
 x4 | x4 | x4 | x4 | x4 | x4 | x4 | x4 | x4 | x4 | x4 | x4 | x4 | x4 | x4 | x4 | x4 | x4 | x4 | %461
 x4 | x4 | x4 | x4 | x4 | x4 | x4 | x4 | x4 | x4 | x4 | x4 | x4 | x4 | x4 ||[K:E] x4 | x4 | x4 | %479
 x4 | x4 | x4 | x4 | x4 | x4 | x4 | x4 | x4 | x4 | x4 | x4 | x4 | x4 | x4 | x4 | x4 | x4 | x4 | %498
 x4 | x4 |[K:treble] x4 | x4 | x4 | x4 | x4 | x4 | x4 | x4 |[K:bass] x4 | x4 | x4 | x4 | x4 | x4 | %514
 x4 | x4 | x4 | x4 | x4 | x4 ||[K:G] x4 | x4 | x4 | x4 | x4 | x4 | x4 | x4 | x4 | x4 | x4 | x4 | %532
 x4 | x4 | x4 | x4 | x4 | x4 | x4 | x4 | x4 | x4 | x4 | x4 | x4 | x4 | x4 | x4 | x4 | x4 | x4 | %551
 x4 | x4 | x4 | x4 | x4 | x4 | x4 | x4 | x4 | x4 | x4 | x4 | x4 | x4 | x4 | x4 | x4 | x4 | x4 | %570
 x4 |[K:treble] x4 | x4 | x4 | x4 | x4 | x4 | x4 | x4 | x4 | x4 | x4 |[K:bass] x4 | x4 | x4 | x4 | %586
 x4 | x4 | x4 | x4 | x4 | x4 | x4 | x4 | x4 | x4 | x4 | x4 | x4 | x4 | x4 | x4 | x4 | x4 | x4 | %605
 x4 | x4 | x4 | x4 | x4 | x4 | x4 | x4 | x4 | x4 | x4 | x4 | x4 | x4 | x4 | x4 ||[K:Bb] x4 | x4 | %623
 x4 | x4 | x4 | x4 | x4 | x4 | x4 | x4 | x4 | x4 | x4 | x4 | x4 | x4 | x4 | x4 |[K:treble] x4 | %640
 x4 | x4 |[K:bass] x4 | x4 | x4 | x4 | x4 | x4 | x4 | x4 | x4 | x4 | x4 | x4 | x4 | x4 | x4 | x4 | %658
 x4 | x4 | x4 | x4 | x4 | x4 | x4 ||[K:G] x4 | x4 | x4 | x4 | x4 | x4 | x4 | x4 | x4 | x4 | x4 | %676
 x4 | x4 | x4 | x4 | x4 | x4 | x4 | x4 | x4 | x4 | x4 | x4 | x4 |[K:treble] x4 | x4 | x4 | x4 | %693
 x4 | x4 | x4 | x4 |[K:bass] x4 | x4 | x4 | x4 | x4 | x4 | x4 | x4 | x4 | x4 | x4 | x4 | x4 | x4 | %711
 x4 | x4 | x4 | x4 | x4 | x4 | x4 | x4 | x4 | x4 | x4 | x4 | x4 | x4 | x4 | x4 | x4 | x4 | x4 | %730
 x4 | x4 | x4 | x4 | x4 | x4 | x4 | x4 | x4 | x4 | x4 | x4 | x4 | x4 | x4 | x4 | x4 | x4 | x4 | %749
 x4 |] %750
V:8
 x6 | x6 | x6 | x6 | x6 | x6 | x6 | x6 | x6 | x6 | x6 | x6 | x6 | x6 | x6 | x6 | x6 | x6 | x6 | %19
 x6 | x6 | x6 | x6 | x6 | x6 | x6 | x6 | x6 | x6 | x6 | x6 | x6 | x6 | x6 | x6 | x6 | x6 | x6 | %38
 x6 | x6 | x6 | x6 | x6 | x6 | x6 | x6 | x6 | x6 | x6 | x6 | x6 | x6 | x6 | x6 | x6 | x6 | x6 | %57
 x6 | x6 | x6 | x6 | x6 | x6 |1 x6 | x6 | x6 | x6 :|2 x6 | x6 || x6 | x6 | x6 | x6 | x6 | x6 | x6 | %76
 x6 | x6 | x6 | x6 | x6 | x6 | x6 | x6 | x6 | x6 | x6 | x6 | x6 | x6 | x6 | x6 | x6 | x6 | x6 | %95
 x6 | x6 | x6 | x6 | x6 | x6 | x6 | x6 | x6 | x6 | x6 | x6 | x6 | x6 | x6 | x6 | x6 | x6 | x6 | %114
 x6 | x6 | x6 | x6 | x6 | x6 | x6 | x6 | x6 | x6 | x6 | x6 | x6 | x6 | x6 | x6 | x6 | x6 | x6 | %133
 x6 | x6 | x6 | x6 | x6 | x6 | x6 | x6 | x6 | x6 | x6 | x6 | x6 | x6 | x6 | x6 | x6 | x6 | x6 | %152
 x6 | x6 | x6 | x6 | x6 | x6 | x6 | x6 | x6 | x6 | x6 | x6 | x6 | x6 | x6 | x6 | x6 | x6 | x6 | %171
 x6 | x6 | x6 | x6 | x6 | x6 | x6 | x6 | x6 | x6 | x6 | x6 | x6 | x6 | x6 | x6 | x6 | x6 | x6 | %190
 x6 | x6 |!8va(! x2!8va)! x4 | x6 | x6 | x6 | x6 |[K:bass] x6 | x6 |][K:Bb][M:2/4][K:treble] x4 | %200
 x4 | x4 | x4 | x4 | x4 | x4 | x4 | x4 | x4 | x4 | x4 | x4 | x4 | x4 | x4 | x4 | x4 | x4 | x4 | %219
 x4 | x4 | x4 | x4 |[K:bass] x4 | x4 | x4 | x4 |[K:treble] x4 | x4 | x4 | x4 | x4 | x4 | x4 | %234
[K:bass] x4 | x4 | x2 ^F,G, | x4 | x2[K:treble] x2 | x4 | x4 | x4 ||[K:G]!8va(! x4 | x4 | x4 | x4 | %246
 x4 | x4 | x4 | x4 | x4 | x4 | x4 | x4!8va)! | x4 | x4 | x4 | x4 | x4 | x4 | x4 | x4 |[K:bass] x4 | %263
 x4 | x4 | x4 | x4 | x4 | x4 | x4 ||[K:Bb] x4 | x4 | x2[K:treble] x2 | x4 | x4 | x4 | x4 | x4 | %278
 x4 | x4 | x4 | x4 | x4 | x4 | x4 | x4 |][K:G][M:3/4] x6 | x6 | x6 | x6 | x6 | x6 | x6 | x6 | x6 | %295
 x6 | x6 | x6 | x6 | x6 | x6 | x6 :: x6 | x6 | x6 | x6 | x6 | x6 | x6 | x6 | x6 | x6 | x6 | x6 | %314
 x6 | x6 | x6 | x6 | x6 | x6 | x6 | x6 | x6 | x6 | x6 | x6 | x6 | x6 | x6 | x6 | x6 | x6 | x6 | %333
 x6 | x6 | x6 | x6 | x6 | x6 | x6 | x6 ::[K:C][M:3/4] x6 | x6 | x6 | x6 | x6 | x6 | x6 | x6 :: x6 | %350
 x6 | x6 | x6 | x6 | x6 | x6 | x6 | x6 | x6 | x6 | x6 | x6 | x6 | x6 | x6 | x6 | x6 | x6 | x6 | %369
 x6 | x6 :|[K:G][M:2/4] x4 | x4 | x4 | x4 | x4 | x4 | x4 | x4 | x4 | x4 | x4 | x4 | x4 | x4 | x4 | %386
 x4 | x4 | x4 | x4 | x4 | x4 | x4 | x4 | x4 | x4 | x4 | x4 | x4 | x4 | x4 | x4 | x4 | x4 | x4 | %405
 x4 | x4 | x4 | x4 | x4 | x4 | x4 | x4 | x4 | x4 | x4 | x4 | x4 | x4 | x4 | x4 | x4 | x4 | x4 | %424
 x4 | x4 | x4 | x4 | x4 | x4 | x4 | x4 | x4 | x4 | x4 | x4 | x4 | x4 | x4 | x4 | x4 | x4 | x4 | %443
 x4 |!8va(! x4 | x4 | x!8va)! x3 | x4 | x4 | x4 | x4 | x4 | x4 | x4 | x4 | x4 | x4 | x4 | x4 | x4 | %460
 x4 | x4 | x4 | x4 | x4 | x4 | x4 | x4 | x4 | x4 | x4 | x4 | x4 | x4 | x4 | x4 ||[K:E] x4 | x4 | %478
 x4 | x4 | x4 | x4 | x4 | x4 | x4 | x4 | x4 | x4 | x4 | x4 | x4 | x4 | x4 | x4 | x4 | x4 | x4 | %497
 x4 | x4 | x4 | x4 | x4 | x4 | x4 | x4 | x4 | x4 | x4 | x4 | x4 | x4 | x4 | x4 | x4 | x4 | x4 | %516
 x4 | x4 | x4 | x4 ||[K:G] x4 | x4 | x4 | x4 | x4 | x4 | x4 | x4 | x4 | x4 | x4 | x4 | x4 | x4 | %534
 x4 | x4 | x4 | x4 | x4 | x4 | x4 | x4 | x4 | x4 | x4 | x4 | x4 | x4 | x4 | x4 | x4 | x4 | x4 | %553
 x4 | x4 | x4 | x4 | x4 | x4 | x4 | x4 | x4 | x4 | x4 | x4 | x4 | x4 | x4 | x4 | x4 | x4 | x4 | %572
 x4 | x4 | x4 | x4 | x4 | x4 | x4 | x4 | x4 | x4 | x4 | x4 | x4 | x4 | x4 | x4 | x4 | x4 | x4 | %591
 x4 | x4 | x4 | x4 | x4 | x4 | x4 | x4 | x4 | x4 | x4 | x4 | x4 | x4 | x4 | x4 | x4 | x4 | x4 | %610
 x4 | x4 | x4 | x4 | x4 | x4 | x4 | x4 | x4 | x4 | x4 ||[K:Bb] x4 | x4 | x4 | x4 | x4 | x4 | x4 | %628
 x4 |!8va(! x4 | x4 | x4 | x4 | x4 | x4 | x4 | x3!8va)! x | x4 | x4 | x4 | x4 | x4 | x4 | x4 | x4 | %645
 x4 | x4 | x4 | x4 | x4 | x4 | x4 | x4 | x4 | x4 | x4 | x4 | x4 | x4 | x4 | x4 | x4 | x4 | x4 | %664
 x4 ||[K:G] x4 | x4 | x4 | x4 | x4 | x4 | x4 | x4 | x4 | x4 | x4 | x4 | x4 | x4 | x4 | x4 | x4 | %682
 x4 | x4 | x4 | x4 | x4 | x4 | x4 | x4 | x4 | x4 | x4 | x4 | x4 | x4 | x4 | x4 | x4 | x4 | x4 | %701
 x4 | x4 | x4 | x4 | x4 | x4 | x4 | x4 | x4 | x4 | x4 | x4 | x4 | x4 | x4 | x4 | x4 | x4 | x4 | %720
 x4 | x4 | x4 | x4 | x4 | x4 | x4 | x4 | x4 | x4 | x4 | x4 | x4 | x4 | x4 | x4 | x4 | x4 | x4 | %739
 x4 | x4 | x4 | x4 | x4 | x4 | x4 | x4 | x4 | x4 | x4 |] %750

